!!!!SEGMENT: pl-cz--iii-574--001_rodowski-aleksander--missa-in-c-kyrie.krn
!!!cenid: 18xx:1019
!!!COM: Rodowski, Aleksander
!!!COM-rismid: pe30009627
!!!CDT: <1790->1810
!!!CNT: Polish
!!!OPR: Missa in C
!!!OTL: Kyrie
!!!OMV: 001
!!!PDT: 1801
!!!AGN: Sacred; Mass
!!!SMS-siglum: PL-CZ
!!!SMS-shelfmark: III-574
!!!SMS-shelfwork: 001-001 M
!!!SMS-variant:
!!!SMS-altvar:
!!!NIFC-rismid: 300001098
!!!URL-scan: http://repozytorium.nifc.pl/skany/pl-cz-nut--iii-574
!!!ONB-nifc: UWAGA: części Mszy: Kyrie, Christe, Gloria, Credo, Sanctus, Pleni, Benedictus, Agnus Dei
!!!AIN: 1 alto 1 bass 2 clars 2 cor 2 oboe 1 organ 1 soprn 1 timpa 2 tromp 2 violn
!!!key: C
**kern	**fba	**dynam	**kern	**dynam	**kern	**dynam	**kern	**text	**kern	**text	**kern	**text	**kern	**kern	**kern	**kern	**kern	**kern	**kern	**kern	**kern	**dynam
*group6	*	*	*group5	*	*group5	*	*group4	*	*group4	*	*group4	*	*group3	*group2	*group2	*group2	*group2	*group1	*group1	*group1	*group1	*
*part15	*	*part15	*part14	*part14	*part13	*part13	*part12	*part12	*part11	*part11	*part10	*part10	*part9	*part8	*part7	*part6	*part5	*part4	*part3	*part2	*part1	*part1
*staff15	*	*	*staff14	*	*staff13	*	*staff12	*staff12	*staff11	*staff11	*staff10	*staff10	*staff9	*staff8	*staff7	*staff6	*staff5	*staff4	*staff3	*staff2	*staff1	*
*I"Organo.	*	*	*I"Violino Secondo.	*	*I"Violino Primo.	*	*I"Basſo.	*	*I"Alto.	*	*I"Canto.	*	*I"Tympano in C.	*I"Clarino Secondo in C.	*I"Clarino Primo. in C.	*I"Cornu Secondo.	*I"Cornu Primo. ex C.	*I"Clarinetto Secondo.	*I"Clarinetto Primo.	*I"Oboe Secondo.	*I"Oboe Primo.	*
*I'[Org]	*	*	*I'[Vl 2]	*	*I'[Vl 1]	*	*I'[B]	*	*I'[A]	*	*I'[S]	*	*I'[Timp in C]	*I'[Clno 2 in C]	*I'[Clno 1 in C]	*I'[Cor 2]	*I'[Cor 1 in C]	*I'[Cl 2]	*I'[Cl 1]	*I'[Ob 2]	*I'[Ob 1]	*
*Iorgan	*	*	*Ivioln	*	*Ivioln	*	*Ibass	*	*Ialto	*	*Isoprn	*	*Itimpa	*Itromp	*Itromp	*Icor	*Icor	*Iclars	*Iclars	*Ioboe	*Ioboe	*
*ICklav	*	*	*ICstr	*	*ICstr	*	*ICvox	*	*ICvox	*	*ICvox	*	*ICidio	*ICbras	*ICbras	*ICbras	*ICbras	*ICww	*ICww	*ICww	*ICww	*
*IGacmp	*	*	*IGacmp	*	*IGacmp	*	*IGcoro	*	*IGacmp	*	*IGcoro	*	*IGacmp	*IGacmp	*IGacmp	*IGacmp	*IGacmp	*IGacmp	*IGacmp	*IGacmp	*IGacmp	*
*clefF4	*	*	*clefG2	*	*clefG2	*	*clefF4	*	*clefC3	*	*clefC1	*	*clefF4	*clefG2	*clefG2	*clefG2	*clefG2	*clefG2	*clefG2	*clefG2	*clefG2	*
*	*	*	*	*	*	*	*	*	*	*	*	*	*	*	*	*ITrd0c0	*ITrd0c0	*ITrd1c2	*ITrd1c2	*	*	*
*k[]	*	*	*k[]	*	*k[]	*	*k[]	*	*k[]	*	*k[]	*	*k[]	*k[]	*k[]	*k[]	*k[]	*k[]	*k[]	*k[]	*k[]	*
*C:	*	*	*C:	*	*C:	*	*C:	*	*C:	*	*C:	*	*C:	*C:	*C:	*C:	*C:	*C:	*C:	*C:	*C:	*
*M4/4	*	*	*M4/4	*	*M4/4	*	*M4/4	*	*M4/4	*	*M4/4	*	*M4/4	*M4/4	*M4/4	*M4/4	*M4/4	*M4/4	*M4/4	*M4/4	*M4/4	*
*met(c)	*	*	*met(c)	*	*met(c)	*	*met(c)	*	*met(c)	*	*met(c)	*	*met(c)	*met(c)	*met(c)	*met(c)	*met(c)	*met(c)	*met(c)	*met(c)	*met(c)	*
=1	=1	=1	=1	=1	=1	=1	=1	=1	=1	=1	=1	=1	=1	=1	=1	=1	=1	=1	=1	=1	=1	=1
*	*	*	*	*	*	*	*2\right	*	*2\right	*	*2\right	*	*	*	*2\right	*	*2\right	*2\right	*2\right	*2\right	*2\right	*
!!mixed beam:problem
!LO:TX:t=P:problem=mixed beam	!	!	!LO:TX:b:t=Kyrie.	!	!	!	!	!	!	!	!	!	!LO:TX:t=P:problem=all\middle&colon; global	!LO:TX:t=P:problem=all\middle&colon; global	!LO:TX:t=P:problem=all\middle&colon; global	!LO:TX:t=P:problem=all\middle&colon; global	!LO:TX:t=P:problem=all\middle&colon; global	!LO:TX:t=P:problem=all\middle&colon; global	!LO:TX:t=P:problem=all\middle&colon; global	!LO:TX:t=P:problem=all\middle&colon; global	!LO:TX:t=P:problem=all\middle&colon; global	!
!LO:TX:b:t=Kyrie.	!	!	!LO:TX:a:B:t=Moderato.\nAllegro.	!	!LO:TX:b:t=Kyrie.	!	!	!	!	!	!	!	!	!	!LO:TX:b:t=Kyrie.	!LO:TX:b:t=Kyrie.	!LO:TX:b:t=Kyrie.	!LO:TX:b:t=Kyrie.	!LO:TX:b:t=Kyrie.	!LO:TX:b:t=Kyrie.	!LO:TX:b:t=Kyrie.	!
!LO:TX:a:B:t=Moderato.\nAllegro.	!	!	!	!	!LO:TX:a:B:t=Moderato.\nAllegro.	!	!LO:TX:a:B:t=Moderato.\nAllegro.	!	!LO:TX:a:B:t=Moderato.\nAllegro.	!	!LO:TX:a:B:t=Moderato.\nAllegro.	!	!	!LO:TX:a:B:t=Moderato.\nAllegro.	!LO:TX:a:B:t=Moderato. Allegro.	!LO:TX:a:B:t=Allegro.Moderato.	!LO:TX:a:B:t=Moderato.\nAllegro.	!LO:TX:a:B:t=Moderato.\nAllegro.	!LO:TX:a:B:t=Moderato.\nAllegro.	!LO:TX:a:B:t=Moderato.\nAllegro.	!LO:TX:a:B:t=Moderato.\nAllegro.	!
!LO:TX:b:t=Tutti	!	!	!LO:TX:t=P:problem=all\middle&colon; global	!LO:DY:b:t=for.:rj	!LO:TX:t=P:problem=all\middle&colon; global	!LO:DY:b:t=forte.:rj	!LO:TX:t=P:problem=all\middle&colon; global	!	!LO:TX:t=P:problem=all\middle&colon; global	!	!LO:TX:t=P:problem=all\middle&colon; global	!	!	!	!	!	!	!	!	!	!LO:TX:t=P:problem=all\middle&colon; global	!
!LO:TX:t=P:problem=all\middle&colon; global	!	!	!	!	!	!	!	!	!	!	!	!	!	!	!	!	!	!	!	!	!	!
8C/L	5 3	.	4G/ 4e/	f	4cc\ 4ccc\	f	2c\	Ky-	2ee\	Ky-	2gg\	Ky-	2C/	2c/	2cc\	2c/	2cc\	2ee\	2gg\	2ee\	2gg\	.
8c\	.	.	.	.	.	.	.	.	.	.	.	.	.	.	.	.	.	.	.	.	.	.
8c\	.	.	16G/LL 16e/	.	16ccc\LL	.	.	.	.	.	.	.	.	.	.	.	.	.	.	.	.	.
.	.	.	16g/	.	16gg\	.	.	.	.	.	.	.	.	.	.	.	.	.	.	.	.	.
8c\J	.	.	16f/	.	16aa\	.	.	.	.	.	.	.	.	.	.	.	.	.	.	.	.	.
.	.	.	16d/JJ	.	16bb\JJ	.	.	.	.	.	.	.	.	.	.	.	.	.	.	.	.	.
*tremolo	*	*	*	*	*	*	*	*	*	*	*	*	*	*	*	*	*	*	*	*	*	*
*2\right	*	*	*	*	*	*	*	*	*	*	*	*	*	*	*	*	*	*	*	*	*	*
8c\L	.	.	16G/LL 16e/	.	16ccc\LL	.	4c\	-ri-	4ee\	-ri-	4gg\	-ri-	4C/	4c/	4cc\	4c/	4cc\	4cc\	4ee\	4cc\	4ee\	.
.	.	.	16g/	.	16gg\	.	.	.	.	.	.	.	.	.	.	.	.	.	.	.	.	.
8c\	.	.	16f/	.	16aa\	.	.	.	.	.	.	.	.	.	.	.	.	.	.	.	.	.
.	.	.	16d/JJ	.	16bb\JJ	.	.	.	.	.	.	.	.	.	.	.	.	.	.	.	.	.
8c\	.	.	16G/LL 16e/	.	16ccc\LL	.	4c\	-e	8ee\	-e	8gg\	-e	4C/	4c/	4cc\	4c/	4cc\	4cc\	4ee\	4cc\	4ee\	.
.	.	.	16g/	.	16gg\	.	.	.	.	.	.	.	.	.	.	.	.	.	.	.	.	.
8c\J	.	.	16f/	.	16ee\	.	.	.	8ee\	e-	8gg\	e-	.	.	.	.	.	.	.	.	.	.
.	.	.	16d/JJ	.	16cc\JJ	.	.	.	.	.	.	.	.	.	.	.	.	.	.	.	.	.
=2	=2	=2	=2	=2	=2	=2	=2	=2	=2	=2	=2	=2	=2	=2	=2	=2	=2	=2	=2	=2	=2	=2
8c\L	6 4	.	4G/ 4f/	.	4cc\ 4aa\	.	2c\	lei-	2ff\	-lei-	2aa\	-lei-	4C/	4c/	4cc\	4c/	4cc\	4ff\	4aa\	4ff\	4aa\	.
8c\	7 2	.	.	.	.	.	.	.	.	.	.	.	.	.	.	.	.	.	.	.	.	.
8c\	.	.	4G/ 4d/	.	4dd\ 4bb\	.	.	.	.	.	.	.	4C/	4c/	4cc\	4c/	4cc\	4dd\	4bb\	4dd\	4bb\	.
8c\J	.	.	.	.	.	.	.	.	.	.	.	.	.	.	.	.	.	.	.	.	.	.
*Xtremolo	*	*	*	*	*	*	*	*	*	*	*	*	*	*	*	*	*	*	*	*	*	*
8c\L	8 3	.	4G/ 4e/	.	4ee\ 4ccc\	.	4c\	-ſon	4ee\	-son	4gg\	-son	4C/	4c/	4cc\	4c/	4cc\	4ee\	4ccc\	4ee\	4ccc\	.
8G\	.	.	.	.	.	.	.	.	.	.	.	.	.	.	.	.	.	.	.	.	.	.
8E\	.	.	4r	.	4r	.	4r	.	4r	.	4r	.	4r	4r	4r	4r	4r	4r	4r	4r	4r	.
8G\J	.	.	.	.	.	.	.	.	.	.	.	.	.	.	.	.	.	.	.	.	.	.
=3	=3	=3	=3	=3	=3	=3	=3	=3	=3	=3	=3	=3	=3	=3	=3	=3	=3	=3	=3	=3	=3	=3
!!mixed beam:problem
!LO:TX:t=P:problem=mixed beam	!	!	!	!	!	!	!	!	!	!	!	!	!	!	!	!	!	!	!	!	!	!
8C/L	.	.	4G/ 4e/	.	4cc\ 4ccc\	.	2c\	Ky-	2ee\	Ky-	2gg\	Ky-	2C/	2c/	2cc\	2c/	2cc\	2ee\	2gg\	2ee\	2gg\	.
8c\	.	.	.	.	.	.	.	.	.	.	.	.	.	.	.	.	.	.	.	.	.	.
8c\	.	.	16G/LL 16e/	.	16ccc\LL	.	.	.	.	.	.	.	.	.	.	.	.	.	.	.	.	.
.	.	.	16g/	.	16gg\	.	.	.	.	.	.	.	.	.	.	.	.	.	.	.	.	.
8c\J	.	.	16f/	.	16aa\	.	.	.	.	.	.	.	.	.	.	.	.	.	.	.	.	.
.	.	.	16d/JJ	.	16bb\JJ	.	.	.	.	.	.	.	.	.	.	.	.	.	.	.	.	.
*tremolo	*	*	*	*	*	*	*	*	*	*	*	*	*	*	*	*	*	*	*	*	*	*
8c\L	.	.	16G/LL 16e/	.	16ccc\LL	.	4c\	-ri-	4ee\	-ri-	4gg\	-ri-	4C/	4c/	4cc\	4c/	4cc\	4cc\	4ee\	4cc\	4ee\	.
.	.	.	16g/	.	16gg\	.	.	.	.	.	.	.	.	.	.	.	.	.	.	.	.	.
8c\	.	.	16f/	.	16aa\	.	.	.	.	.	.	.	.	.	.	.	.	.	.	.	.	.
.	.	.	16d/JJ	.	16bb\JJ	.	.	.	.	.	.	.	.	.	.	.	.	.	.	.	.	.
8c\	.	.	16G/LL 16e/	.	16ccc\LL	.	4c\	-e	4ee\	-e	8gg\	-e	4C/	4c/	4cc\	4c/	4cc\	4cc\	4ee\	4cc\	4ee\	.
.	.	.	16g/	.	16gg\	.	.	.	.	.	.	.	.	.	.	.	.	.	.	.	.	.
8c\J	.	.	16f/	.	16ee\	.	.	.	.	.	8gg\	e-	.	.	.	.	.	.	.	.	.	.
.	.	.	16d/JJ	.	16cc\JJ	.	.	.	.	.	.	.	.	.	.	.	.	.	.	.	.	.
*Xtremolo	*	*	*	*	*	*	*	*	*	*	*	*	*	*	*	*	*	*	*	*	*	*
=4	=4	=4	=4	=4	=4	=4	=4	=4	=4	=4	=4	=4	=4	=4	=4	=4	=4	=4	=4	=4	=4	=4
!	!	!	!	!	!	!	!	!	!	!	!	!	!	!	!	!	!	!	!	!	!LO:SIC:v:s:t=4dd\	!
8G\L	7 x	.	4G/ 4d/	.	4g\ 4ff\	.	4G\	e-	2dd\	-lei-	2ff\	-lei-	4GG/	4G/	4g/	4G/	4g/	4dd\	4ff\	4dd\	4ee\	.
8G\	.	.	.	.	.	.	.	.	.	.	.	.	.	.	.	.	.	.	.	.	.	.
8A\	.	.	4G/ 4d/ 4b/	.	4g\ 4dd\	.	8A\L	-le-	.	.	.	.	4GG/	4G/	4g/	4G/	4g/	4b\	4dd\	4b\	4dd\	.
!LO:TX:a:t=h	!	!	!	!	!	!	!	!	!	!	!	!	!	!	!	!	!	!	!	!	!	!
8B\J	.	.	.	.	.	.	8B\J	-i-	.	.	.	.	.	.	.	.	.	.	.	.	.	.
8c\L	x 3	.	4G/ 4e/ 4cc/	.	4g\ 4ee\	.	4c\	-son.	4cc\	-son.	4ee\	-son.	4C/	4c/	4cc\	4c/	4cc/	4cc\	4ee\	4cc\	4ee\	.
8G\	.	.	.	.	.	.	.	.	.	.	.	.	.	.	.	.	.	.	.	.	.	.
8E\	.	.	4r	.	4r	.	4r	.	4r	.	4r	.	4r	4r	4r	4r	4r	4r	4r	4r	4r	.
8G\J	.	.	.	.	.	.	.	.	.	.	.	.	.	.	.	.	.	.	.	.	.	.
!	!	!	!	!	!LO:LB:g=original	!	!	!	!	!	!	!	!	!	!	!	!	!	!	!	!	!
=5	=5	=5	=5	=5	=5	=5	=5	=5	=5	=5	=5	=5	=5	=5	=5	=5	=5	=5	=5	=5	=5	=5
!	!	!	!	!	!	!LO:DY:b:t=pp.	!LO:TX:a:t=2.	!	!LO:TX:a:t=2.	!	!LO:TX:a:t=2.	!	!LO:TX:a:t=4	!LO:TX:a:t=4.	!LO:TX:a:t=4	!LO:TX:a:t=2.	!LO:TX:a:t=2.	!LO:TX:a:t=2.	!LO:TX:a:t=2.	!LO:TX:a:t=2.	!	!
4C/	.	.	1r	.	4.cc\	pp	0r	.	0r	.	0r	.	00r	00r	00r	0r	0r	0r	0r	0r	0r	.
4r	.	.	.	.	.	.	.	.	.	.	.	.	.	.	.	.	.	.	.	.	.	.
.	.	.	.	.	8ee\	.	.	.	.	.	.	.	.	.	.	.	.	.	.	.	.	.
!	!	!	!	!	!LO:TX:t=P:problem=mixed beam	!	!	!	!	!	!	!	!	!	!	!	!	!	!	!	!	!
2r	.	.	.	.	8dd\L	.	.	.	.	.	.	.	.	.	.	.	.	.	.	.	.	.
.	.	.	.	.	8ee\	.	.	.	.	.	.	.	.	.	.	.	.	.	.	.	.	.
.	.	.	.	.	8ff\	.	.	.	.	.	.	.	.	.	.	.	.	.	.	.	.	.
.	.	.	.	.	8g/J	.	.	.	.	.	.	.	.	.	.	.	.	.	.	.	.	.
!	!	!	!LO:LB:g=original	!	!	!	!	!	!	!	!	!	!	!	!	!	!	!	!	!	!	!
=6	=6	=6	=6	=6	=6	=6	=6-	=6	=6-	=6	=6-	=6	=6-	=6-	=6-	=6-	=6-	=6-	=6-	=6-	=6-	=6
!LO:TX:a:t=1.	!	!	!	!LO:DY:b:t=p.	!	!	!	!	!	!	!	!	!	!	!	!	!	!	!	!	!	!
1r	.	.	4.cc\	p	4.ee\	.	.	.	.	.	.	.	.	.	.	.	.	.	.	.	.	.
.	.	.	8ee\	.	8gg\	.	.	.	.	.	.	.	.	.	.	.	.	.	.	.	.	.
!!mixed beam:problem
!	!	!	!LO:TX:t=P:problem=mixed beam	!	!	!	!	!	!	!	!	!	!	!	!	!	!	!	!	!	!	!
.	.	.	8dd\L	.	8ff\L	.	.	.	.	.	.	.	.	.	.	.	.	.	.	.	.	.
.	.	.	8ee\	.	8gg\	.	.	.	.	.	.	.	.	.	.	.	.	.	.	.	.	.
.	.	.	8ff\	.	8aa\	.	.	.	.	.	.	.	.	.	.	.	.	.	.	.	.	.
.	.	.	8g/J	.	8bb\J	.	.	.	.	.	.	.	.	.	.	.	.	.	.	.	.	.
!LO:LB:g=original	!	!	!	!	!	!	!	!	!	!	!	!	!	!	!	!	!	!	!	!	!	!
=7	=7	=7	=7	=7	=7	=7	=7	=7	=7	=7	=7	=7	=7-	=7-	=7-	=7	=7	=7	=7	=7	=7	=7
*	*	*	*tremolo	*	*	*	*	*	*	*	*	*	*	*	*	*2\right	*	*tremolo	*	*tremolo	*	*
!	!	!	!	!LO:DY:a:t=for&colon;	!	!LO:DY:b:t=forte.	!	!	!	!	!	!	!	!	!	!	!	!	!	!	!	!
8C\L	.	.	16G/ 16eLL/	f	4ee\ 4ccc\	f	4.c\	Ky-	4.g\	Ky-	4.ee\	Ky-	.	.	.	2cc\	2ee\	8ee\L	8ccc\L	8ee\L	8ccc\L	.
.	.	.	16G/ 16e/	.	.	.	.	.	.	.	.	.	.	.	.	.	.	.	.	.	.	.
8E\	.	.	16G/ 16e/	.	.	.	.	.	.	.	.	.	.	.	.	.	.	8ee\	8gg\	8ee\	8gg\	.
.	.	.	16G/ 16e/	.	.	.	.	.	.	.	.	.	.	.	.	.	.	.	.	.	.	.
!	!	!	!	!	!	!	!	!	!	!	!	!	!	!	!	!	!	!	!	!	!LO:TX:a:t=vis	!
8G\	.	.	16G/ 16e/	.	4ee\ 4ccc\	.	.	.	.	.	.	.	.	.	.	.	.	8ee\	8gg\	8ee\	8gg\	.
.	.	.	16G/ 16e/	.	.	.	.	.	.	.	.	.	.	.	.	.	.	.	.	.	.	.
!	!	!	!	!	!	!	!	!	!	!	!LO:N:vis=16	!	!	!	!	!	!	!	!	!	!	!
8c\J	.	.	16G/ 16e/	.	.	.	8c\	-ri-	8g\	-ri-	8ee\	-ri-	.	.	.	.	.	8ee\J	8gg\J	8ee\J	8gg\J	.
.	.	.	16G/ 16eJJ/	.	.	.	.	.	.	.	.	.	.	.	.	.	.	.	.	.	.	.
*	*	*	*	*	*	*	*	*	*	*	*	*	*	*	*	*	*	*	*tremolo	*	*	*
8B\L	.	.	16G/ 16fLL/	.	4ff\ 4ddd\	.	8B\L	-e	8g\	-e	8dd\	-e	.	.	.	4dd\	4ff\	8ff\L	8gg\L	8ff\L	2gg\	.
.	.	.	16G/ 16f/	.	.	.	.	.	.	.	.	.	.	.	.	.	.	.	.	.	.	.
8c\	.	.	16G/ 16f/	.	.	.	8c\	e-	8g\	e-	8ee\	e-	.	.	.	.	.	8ff\	8gg\	8ff\	.	.
.	.	.	16G/ 16fJJ/	.	.	.	.	.	.	.	.	.	.	.	.	.	.	.	.	.	.	.
!	!	!	!	!	!	!	!	!	!LO:LB:g=original	!	!	!	!	!	!	!	!	!	!	!	!	!
8d\	.	.	16G/ 16dLL/	.	4dd\ 4bb\	.	8d\	-lei-	8g\	-lei-	8ff\	-lei-	.	.	.	4g/	4dd\	8ff\	8gg\	8ff\	.	.
.	.	.	16G/ 16d/	.	.	.	.	.	.	.	.	.	.	.	.	.	.	.	.	.	.	.
8G\J	.	.	16G/ 16d/	.	.	.	8G\J	-son	8g\	-son	8dd\	-son	.	.	.	.	.	8ff\J	8gg\J	8ff\J	.	.
.	.	.	16G/ 16dJJ/	.	.	.	.	.	.	.	.	.	.	.	.	.	.	.	.	.	.	.
!	!	!	!	!	!	!	!	!	!	!	!LO:LB:g=original	!	!	!	!	!	!	!	!LO:LB:g=original	!	!	!
=8	=8	=8	=8	=8	=8	=8	=8	=8	=8	=8	=8	=8	=8-	=8-	=8-	=8	=8	=8	=8	=8	=8	=8
!	!	!	!	!	!	!	!	!	!	!	!	!	!	!	!	!	!	!	!	!	!LO:TX:t=P:problem=t. 8 zapisany jako repetycja	!
8C\L	.	.	16G/ 16eLL/	.	4ee\ 4ccc\	.	4.c\	Ky-	4.g\	Ky-	4.ee\	Ky-	.	.	.	4cc\	4ee\	8ee\L	8ccc\L	8ee\L	8ccc\Lyy	.
.	.	.	16G/ 16e/	.	.	.	.	.	.	.	.	.	.	.	.	.	.	.	.	.	.	.
8E\	.	.	16G/ 16e/	.	.	.	.	.	.	.	.	.	.	.	.	.	.	8ee\	8gg\	8ee\	8gg\yy	.
.	.	.	16G/ 16e/	.	.	.	.	.	.	.	.	.	.	.	.	.	.	.	.	.	.	.
!	!	!	!	!	!	!	!	!	!	!	!	!	!	!	!	!	!	!	!	!	!LO:TX:a:t=vis	!
8G\	.	.	16G/ 16e/	.	4ee\ 4ccc\	.	.	.	.	.	.	.	.	.	.	4cc\	4ee\	8ee\	8gg\	8ee\	8gg\yy	.
.	.	.	16G/ 16e/	.	.	.	.	.	.	.	.	.	.	.	.	.	.	.	.	.	.	.
8c\J	.	.	16G/ 16e/	.	.	.	8c\	-ri-	8g\	-ri-	8ee\	-ri-	.	.	.	.	.	8ee\J	8gg\J	8ee\J	8gg\Jyy	.
.	.	.	16G/ 16eJJ/	.	.	.	.	.	.	.	.	.	.	.	.	.	.	.	.	.	.	.
8B\L	.	.	16G/ 16fLL/	.	4ff\ 4ddd\	.	8B\L	-e	8g\	-e	8dd\	-e	.	.	.	4dd\	4ff\	8ff\L	8gg\L	8ff\L	2gg\yy	.
.	.	.	16G/ 16f/	.	.	.	.	.	.	.	.	.	.	.	.	.	.	.	.	.	.	.
8c\	.	.	16G/ 16f/	.	.	.	8c\	e-	8g\	e-	8ee\	e-	.	.	.	.	.	8ff\	8gg\	8ff\	.	.
.	.	.	16G/ 16fJJ/	.	.	.	.	.	.	.	.	.	.	.	.	.	.	.	.	.	.	.
8d\	.	.	16G/ 16dLL/	.	4dd\ 4bb\	.	8d\	-lei-	8g\	-lei-	8ff\	-lei-	.	.	.	4g/	4dd\	8ff\	8gg\	8ff\	.	.
.	.	.	16G/ 16d/	.	.	.	.	.	.	.	.	.	.	.	.	.	.	.	.	.	.	.
8G\J	.	.	16G/ 16d/	.	.	.	8G\J	-son	8g\	-ſon	8dd\	-son	.	.	.	.	.	8ff\J	8gg\J	8ff\J	.	.
.	.	.	16G/ 16dJJ/	.	.	.	.	.	.	.	.	.	.	.	.	.	.	.	.	.	.	.
*	*	*	*Xtremolo	*	*	*	*	*	*	*	*	*	*	*	*	*	*	*Xtremolo	*Xtremolo	*Xtremolo	*	*
!	!	!	!	!	!	!	!	!	!	!	!	!	!	!	!	!LO:LB:g=original	!	!LO:LB:g=original	!	!	!LO:LB:g=original	!
=9	=9	=9	=9	=9	=9	=9	=9	=9	=9	=9	=9	=9	=9	=9	=9	=9	=9	=9	=9	=9	=9	=9
!!mixed beam:problem
!LO:TX:t=P:problem=mixed beam	!	!	!	!	!	!	!	!	!	!	!	!	!	!	!	!	!	!	!	!	!	!
8c\L	.	.	8G/L 8e	.	8ee\L 8ccc\	.	8c\	Ky-	8cc\	Ky-	8ee\	Ky-	4C/	4c/	4cc\	4c/	4cc\	8ee\L	8ee\L	8ee\L	8ee\L	.
8C/	.	.	16c/L	.	16cc\L	.	8C/	-ri-	8c\	-ri-	8cc\	-ri-	.	.	.	.	.	8cc\	8cc\	8cc\	8cc\	.
.	.	.	16c/JJ	.	16cc\JJ	.	.	.	.	.	.	.	.	.	.	.	.	.	.	.	.	.
8D/	.	.	16d/LL	.	16dd\LL	.	8D/	-e	8d\	-e	8dd\	-e	4r	4r	4r	4r	4r	8dd\	8dd\	8dd\	8dd\	.
.	.	.	16d/	.	16dd\	.	.	.	.	.	.	.	.	.	.	.	.	.	.	.	.	.
8E/J	.	.	16e/	.	16ee\	.	8E/	e-	8e\	e-	8ee\	e	.	.	.	.	.	8ee\J	8ee\J	8ee\J	8ee\J	.
.	.	.	16e/JJ	.	16ee\JJ	.	.	.	.	.	.	.	.	.	.	.	.	.	.	.	.	.
!	!	!	!	!	!	!	!	!	!	!	!	!	!	!	!	!	!	!	!	!LO:LB:g=original	!	!
8F\L	.	.	16f/LL	.	16ff\LL	.	8F\	-lei-	8f\L	-lei-	8ff\L	lei-	2r	2r	2r	2r	2r	8ff\L	8ff\L	8ff\L	8ff\L	.
.	.	.	16f/	.	16ff\	.	.	.	.	.	.	.	.	.	.	.	.	.	.	.	.	.
8G\	.	.	16g/	.	16gg\	.	8G\	.	8g\	.	8gg\	.	.	.	.	.	.	8gg\	8gg\	8gg\	8gg\	.
.	.	.	16g/JJ	.	16gg\JJ	.	.	.	.	.	.	.	.	.	.	.	.	.	.	.	.	.
8A\	.	.	16a/LL	.	16aa\LL	.	8A\	.	8a\	.	8aa\	.	.	.	.	.	.	8aa\	8aa\	8aa\	8aa\	.
.	.	.	16a/	.	16aa\	.	.	.	.	.	.	.	.	.	.	.	.	.	.	.	.	.
8F#X\J	.	.	16f#X/	.	16ff#X\	.	8F#X\	.	8f#X\J	.	8ff#X\J	.	.	.	.	.	.	8ff#X\J	8ff#X\J	8ff#X\J	8ff#X\J	.
.	.	.	16f#/JJ	.	16ff#\JJ	.	.	.	.	.	.	.	.	.	.	.	.	.	.	.	.	.
!	!	!	!	!	!	!	!	!	!	!	!	!	!	!	!LO:LB:g=original	!	!	!	!	!	!	!
=10	=10	=10	=10	=10	=10	=10	=10	=10	=10	=10	=10	=10	=10	=10	=10	=10	=10	=10	=10	=10	=10	=10
*	*	*	*	*	*2\right	*	*	*	*	*	*	*	*	*	*	*	*	*	*	*	*	*
!	!	!	!	!	!	!	!	!	!	!	!	!	!LO:TX:a:t=4.	!LO:TX:a:t=4	!LO:TX:a:t=4	!LO:TX:a:t=4.	!LO:TX:a:t=4.	!	!	!	!	!
8G\L	5 3	.	8g/L	.	2gg\	.	4G\	-son	4g\	-son	4gg\	-son	00r	00r	00r	00r	00r	2ee\	2gg\	2ee\	2gg\	.
8G\	.	.	8G/ 8d/	.	.	.	.	.	.	.	.	.	.	.	.	.	.	.	.	.	.	.
8G\	.	.	8G/ 8d/	.	.	.	4B\	e-	4dd\	e-	4gg\	e-	.	.	.	.	.	.	.	.	.	.
8G\J	.	.	8G/J 8d/	.	.	.	.	.	.	.	.	.	.	.	.	.	.	.	.	.	.	.
*tremolo	*	*	*tremolo	*	*	*	*	*	*	*	*	*	*	*	*	*	*	*	*	*	*	*
8G\L	.	.	8G/ 8dL/	.	4gg\	.	2B\	-lei-	2dd\	-lei-	2gg\	-lei-	.	.	.	.	.	4ee\	4gg\	4ee\	4gg\	.
8G\	.	.	8G/ 8d/	.	.	.	.	.	.	.	.	.	.	.	.	.	.	.	.	.	.	.
8G\	.	.	8G/ 8d/	.	4gg\	.	.	.	.	.	.	.	.	.	.	.	.	4ee\	4gg\	4ee\	4gg\	.
8G\J	.	.	8G/ 8dJ/	.	.	.	.	.	.	.	.	.	.	.	.	.	.	.	.	.	.	.
!	!	!	!	!	!	!	!LO:LB:g=original	!	!LO:LB:g=original	!	!	!	!	!	!	!	!	!	!	!	!	!
=11	=11	=11	=11	=11	=11	=11	=11	=11	=11	=11	=11	=11	=11-	=11-	=11-	=11-	=11-	=11	=11	=11	=11	=11
*	*	*	*	*	*tremolo	*	*	*	*	*	*	*	*	*	*	*	*	*	*	*	*	*
!	!	!LO:DY:b:t=pia	!	!LO:DY:b:t=piano	!	!LO:DY:b:t=piano.	!	!	!	!	!	!	!	!	!	!	!	!	!	!	!	!
8A-X\L	6 3	p	8A-X/ 8e-XL/	p	16ff#X\LL	p	4c\	-son	4ee-X\	-son	4ff#X\	-son	.	.	.	.	.	2dd#X\	2ff#X\	2dd#X\	2ff#X\	.
.	.	.	.	.	16ff#X\	.	.	.	.	.	.	.	.	.	.	.	.	.	.	.	.	.
8A-X\	.	.	8A-X/ 8e-X/	.	16ff#X\	.	.	.	.	.	.	.	.	.	.	.	.	.	.	.	.	.
.	.	.	.	.	16ff#X\JJ	.	.	.	.	.	.	.	.	.	.	.	.	.	.	.	.	.
8A-X\	.	.	8A-X/ 8e-X/	.	16aa\LL	.	4c\	e-	4ee-\	e-	4ff#\	e-	.	.	.	.	.	.	.	.	.	.
.	.	.	.	.	16aa\	.	.	.	.	.	.	.	.	.	.	.	.	.	.	.	.	.
8A-X\J	.	.	8A-X/ 8e-XJ/	.	16aa\	.	.	.	.	.	.	.	.	.	.	.	.	.	.	.	.	.
.	.	.	.	.	16aa\JJ	.	.	.	.	.	.	.	.	.	.	.	.	.	.	.	.	.
8A-\L	.	.	8A-/ 8e-L/	.	16ccc\LL	.	4G\	.	2ee-\	-lei-	2ff#\	-lei-	.	.	.	.	.	4dd#\	4ff#\	4dd#\	4ff#\	.
.	.	.	.	.	16ccc\	.	.	.	.	.	.	.	.	.	.	.	.	.	.	.	.	.
8A-\	.	.	8A-/ 8e-/	.	16ccc\	.	.	.	.	.	.	.	.	.	.	.	.	.	.	.	.	.
.	.	.	.	.	16ccc\JJ	.	.	.	.	.	.	.	.	.	.	.	.	.	.	.	.	.
8A-\	.	.	8A-/ 8e-/	.	16ff#X\LL	.	4F#X\	-lei-	.	.	.	.	.	.	.	.	.	4dd#\	4ff#\	4ryy	4ff#\	.
.	.	.	.	.	16ff#X\	.	.	.	.	.	.	.	.	.	.	.	.	.	.	.	.	.
8A-\J	.	.	8A-/ 8e-J/	.	16ff#X\	.	.	.	.	.	.	.	.	.	.	.	.	.	.	.	.	.
.	.	.	.	.	16ff#X\JJ	.	.	.	.	.	.	.	.	.	.	.	.	.	.	.	.	.
!	!	!	!LO:LB:g=original	!	!LO:LB:g=original	!	!	!	!	!	!	!	!	!	!	!	!	!	!	!	!	!
=12	=12	=12	=12	=12	=12	=12	=12	=12	=12	=12	=12	=12	=12-	=12-	=12-	=12-	=12-	=12	=12	=12	=12	=12
!	!	!LO:DY:b:t=for	!	!LO:DY:b:t=for.	!	!LO:DY:b:t=forte.	!	!	!	!	!	!	!	!	!	!	!	!	!	!	!	!
8G\L	5 3	f	8g/L	f	2gg\	f	4G\	.	4dd\	-son	4gg\	-son	.	.	.	.	.	2ee\	2gg\	2ee\	2gg\	.
8G\	.	.	8G/ 8d/	.	.	.	.	.	.	.	.	.	.	.	.	.	.	.	.	.	.	.
8G\	.	.	8G/ 8d/	.	.	.	4B\	.	4dd\	e-	4gg\	e-	.	.	.	.	.	.	.	.	.	.
8G\J	.	.	8G/J 8d/	.	.	.	.	.	.	.	.	.	.	.	.	.	.	.	.	.	.	.
8G\L	.	.	8G/ 8dL/	.	4gg\	.	2B\	.	2dd\	-lei-	2gg\	-lei	.	.	.	.	.	4ee\	4gg\	4ee\	4gg\	.
8G\	.	.	8G/ 8d/	.	.	.	.	.	.	.	.	.	.	.	.	.	.	.	.	.	.	.
8G\	.	.	8G/ 8d/	.	4gg\	.	.	.	.	.	.	.	.	.	.	.	.	4ee\	4gg\	4ee\	4gg\	.
8G\J	.	.	8G/ 8dJ/	.	.	.	.	.	.	.	.	.	.	.	.	.	.	.	.	.	.	.
!LO:LB:g=original	!	!	!	!	!	!	!	!	!	!	!LO:LB:g=original	!	!	!	!	!	!	!	!	!	!	!
=13	=13	=13	=13	=13	=13	=13	=13	=13	=13	=13	=13	=13	=13-	=13-	=13-	=13-	=13-	=13	=13	=13	=13	=13
8A-X\L	6 -5	.	8A-X/ 8e-XL/	.	16ff#X\LL	.	4c\	.	4ee-X\	-son	(4ff#X\	e-	.	.	.	.	.	4dd#X\	2ff#X\	2dd#X\	2ff#X\	.
.	.	.	.	.	16ff#X\	.	.	.	.	.	.	.	.	.	.	.	.	.	.	.	.	.
8A-X\	.	.	8A-X/ 8e-X/	.	16ff#X\	.	.	.	.	.	.	.	.	.	.	.	.	.	.	.	.	.
.	.	.	.	.	16ff#X\JJ	.	.	.	.	.	.	.	.	.	.	.	.	.	.	.	.	.
8A-X\	.	.	8A-X/ 8e-X/	.	16aa\LL	.	4c\	.	4ee-\	e-	4ff#\	-lei-	.	.	.	.	.	4dd#\	.	.	.	.
.	.	.	.	.	16aa\	.	.	.	.	.	.	.	.	.	.	.	.	.	.	.	.	.
8A-X\J	.	.	8A-X/ 8e-XJ/	.	16aa\	.	.	.	.	.	.	.	.	.	.	.	.	.	.	.	.	.
.	.	.	.	.	16aa\JJ	.	.	.	.	.	.	.	.	.	.	.	.	.	.	.	.	.
8A-\L	.	.	8A-/ 8e-L/	.	16ccc\LL	.	4G\	.	2ee-\	-lei-	2ff#\)	.	.	.	.	.	.	4dd#\	4ff#\	4dd#\	4ff#\	.
.	.	.	.	.	16ccc\	.	.	.	.	.	.	.	.	.	.	.	.	.	.	.	.	.
8A-\	.	.	8A-/ 8e-/	.	16ccc\	.	.	.	.	.	.	.	.	.	.	.	.	.	.	.	.	.
.	.	.	.	.	16ccc\JJ	.	.	.	.	.	.	.	.	.	.	.	.	.	.	.	.	.
8A-\	.	.	8A-/ 8e-/	.	16ff#X\LL	.	4F#X\	.	.	.	.	.	.	.	.	.	.	4dd#\	4ff#\	4dd#\	4ff#\	.
.	.	.	.	.	16ff#X\	.	.	.	.	.	.	.	.	.	.	.	.	.	.	.	.	.
8A-\J	.	.	8A-/ 8e-J/	.	16ff#X\	.	.	.	.	.	.	.	.	.	.	.	.	.	.	.	.	.
.	.	.	.	.	16ff#X\JJ	.	.	.	.	.	.	.	.	.	.	.	.	.	.	.	.	.
!	!	!	!	!	!	!	!	!	!	!	!	!	!	!	!	!	!LO:LB:g=original	!	!	!	!	!
=14	=14	=14	=14	=14	=14	=14	=14	=14	=14	=14	=14	=14	=14	=14	=14	=14	=14	=14	=14	=14	=14	=14
8G\L	6: 4:	.	8G/ 8enL/	.	2gg\	.	1G	-son	2een\	-son	2gg\	-son	2C/	1cc	2ee\	1cc	2ee\	4ee\	2gg\	4ee\	2gg\	.
8G\	.	.	8G/ 8en/	.	.	.	.	.	.	.	.	.	.	.	.	.	.	.	.	.	.	.
8G\	.	.	8G/ 8en/	.	.	.	.	.	.	.	.	.	.	.	.	.	.	4cc\	.	4cc\	.	.
8G\J	.	.	8G/ 8enJ/	.	.	.	.	.	.	.	.	.	.	.	.	.	.	.	.	.	.	.
8G\L	.	.	8G/ 8eL/	.	8gg\L	.	.	.	8ee\L	e-	8gg\L	e-	2C/	.	2ee\	.	2ee\	4a\	8gg\L	4a\	8gg\L	.
8G\	.	.	8G/ 8e/	.	8aa\	.	.	.	8ff\	.	8aa\	.	.	.	.	.	.	.	8aa\	.	8aa\	.
8G\	.	.	8G/ 8e/	.	8ffn\	.	.	.	8a\	.	8ffn\	.	.	.	.	.	.	4f/	8ffn\	4f\	8ffn\	.
8G\J	.	.	8G/ 8eJ/	.	8dd\J	.	.	.	8f\J	.	8dd\J	.	.	.	.	.	.	.	8dd\J	.	8dd\J	.
=15	=15	=15	=15	=15	=15	=15	=15	=15	=15	=15	=15	=15	=15	=15	=15	=15	=15	=15	=15	=15	=15	=15
8GG/L	.	.	8G/ 8eL/	.	2cc\	.	2G\	e-	2e\	-lei-	2cc\	-lei-	1GG	1g	1dd	1g	1dd	2g/	2cc\	2g/	2cc\	.
8GG/	.	.	8G/ 8e/	.	.	.	.	.	.	.	.	.	.	.	.	.	.	.	.	.	.	.
8GG/	.	.	8G/ 8e/	.	.	.	.	.	.	.	.	.	.	.	.	.	.	.	.	.	.	.
8GG/J	.	.	8G/ 8eJ/	.	.	.	.	.	.	.	.	.	.	.	.	.	.	.	.	.	.	.
8GG/L	7 x	.	8G/ 8fL/	.	2ddTT>\	.	2GG/	-lei-	2f\	.	2dd\	.	.	.	.	.	.	2G/	2dd\	2G/	2dd\	.
8GG/	.	.	8G/ 8f/	.	.	.	.	.	.	.	.	.	.	.	.	.	.	.	.	.	.	.
8GG/	.	.	8G/ 8f/	.	.	.	.	.	.	.	.	.	.	.	.	.	.	.	.	.	.	.
8GG/J	.	.	8G/ 8fJ/	.	.	.	.	.	.	.	.	.	.	.	.	.	.	.	.	.	.	.
*Xtremolo	*	*	*	*	*	*	*	*	*	*	*	*	*	*	*	*	*	*	*	*	*	*
!	!	!	!	!	!	!	!	!	!	!	!	!	!	!	!	!	!	!	!LO:LB:g=original	!	!	!
=16	=16	=16	=16	=16	=16	=16	=16	=16	=16	=16	=16	=16	=16	=16	=16	=16	=16	=16	=16	=16	=16	=16
!!mixed beam:problem
!LO:TX:t=P:problem=mixed beam	!	!	!	!LO:DY:b:t=for.:rj	!	!	!	!	!	!	!	!	!	!	!	!	!	!LO:SIC:v:s:t=4d/	!	!	!	!
8C/L	x 3	.	4G/ 4e/	f	4cc\	.	4C/	-son.	4c\	-son.	4ee\	-son.	4C/	4c/	4cc\	4c/	4cc\	4d/	4cc\	4c/	4cc\	.
8c\	.	.	.	.	.	.	.	.	.	.	.	.	.	.	.	.	.	.	.	.	.	.
8G\	.	.	4G/ 4e/	.	4g\ 4ee\ 4ccc\	.	4r	.	4r	.	4r	.	8C/L	8c/L	8cc\L	8c/L	8cc\L	8ee\L	8gg\L	8ee\L	8gg\L	.
8E\J	.	.	.	.	.	.	.	.	.	.	.	.	8C/J	8c/J	8cc\J	8c/J	8cc\J	8ee\J	8gg\J	8ee\J	8gg\J	.
4C/	.	.	4G/ 4e/	.	4g\ 4ee\ 4ccc\	.	2r	.	2r	.	2r	.	4C/	4c/	4cc\	4c/	4cc\	4cc\	4ee\	4cc\	4ee\	.
4r	.	.	4r	.	4r	.	.	.	.	.	.	.	4r	4r	4r	4r	4r	4r	4r	4r	4r	.
!	!	!	!	!	!	!	!	!	!	!	!	!	!LO:LB:g=original	!LO:LB:g=original	!	!	!	!	!	!	!LO:LB:g=original	!
=17	=17	=17	=17	=17	=17	=17	=17	=17	=17	=17	=17	=17	=17	=17	=17	=17	=17	=17	=17	=17	=17	=17
!	!	!LO:DY:b:t=piano	!	!LO:DY:b:t=piano.	!	!LO:DY:b:t=piano.	!LO:TX:a:t=2.	!	!	!	!LO:TX:a:t=2	!	!LO:TX:b:t=3.	!LO:TX:a:t=3.	!LO:TX:a:t=3.	!	!	!LO:TX:a:t=Solo	!LO:TX:a:t=Solo	!LO:TX:a:t=Solo	!LO:TX:a:t=Solo	!
4GG/	.	p	4d/	p	2f/	p	0r	.	0r	.	0r	.	0r	0r	0r	2g/	2dd\	2dd\	2ff\	2dd\	2ff\	.
4r	.	.	4d/	.	.	.	.	.	.	.	.	.	.	.	.	.	.	.	.	.	.	.
4G\	.	.	8d/L	.	8f/L	.	.	.	.	.	.	.	.	.	.	4g/	4dd\	8dd\L	8ff\L	8dd\L	8ff\L	.
.	.	.	8B/	.	8d/	.	.	.	.	.	.	.	.	.	.	.	.	8b\	8dd\	8b\	8dd\	.
4r	.	.	8c/	.	8e/	.	.	.	.	.	.	.	.	.	.	8cc\L	8ee\L	8cc\	8ee\	8cc\	8ee\	.
.	.	.	8d/J	.	8f/J	.	.	.	.	.	.	.	.	.	.	8dd\J	8ff\J	8dd\J	8ff\J	8dd\J	8ff\J	.
!	!	!	!	!	!	!	!	!	!	!	!	!	!	!	!	!	!	!LO:LB:g=original	!	!LO:LB:g=original	!	!
=18	=18	=18	=18	=18	=18	=18	=18-	=18	=18-	=18	=18-	=18	=18-	=18-	=18-	=18	=18	=18	=18	=18	=18	=18
4C/	.	.	4e'</	.	4g/	.	.	.	.	.	.	.	.	.	.	4cc\	4ee\	4ee\	4gg\	4ee\	4gg\	.
4c\	.	.	8e'</L	.	8g/L	.	.	.	.	.	.	.	.	.	.	4cc\	4ee\	8ee\L	8gg\L	8ee\L	8gg\L	.
.	.	.	8c'</J	.	8e/J	.	.	.	.	.	.	.	.	.	.	.	.	8cc\J	8ee\J	8cc\J	8ee\J	.
!	!	!	!	!LO:DY:b:t=forte.	!	!	!	!	!	!	!	!	!	!	!	!	!	!	!	!	!	!
4C/	.	.	16e/LL	f	16g/LL	.	.	.	.	.	.	.	.	.	.	4cc\	4ee\	4ee\	4gg\	4ee\	4gg\	.
!	!	!	!	!	!	!LO:DY:b:t=forte	!	!	!	!	!	!	!	!	!	!	!	!	!	!	!	!
.	.	.	16c/	.	16c/	f	.	.	.	.	.	.	.	.	.	.	.	.	.	.	.	.
.	.	.	16d/	.	16d/	.	.	.	.	.	.	.	.	.	.	.	.	.	.	.	.	.
.	.	.	16e/JJ	.	16e/JJ	.	.	.	.	.	.	.	.	.	.	.	.	.	.	.	.	.
4r	.	.	16f/LL	.	16f/LL	.	.	.	.	.	.	.	.	.	.	4r	4r	4r	4r	4r	4r	.
.	.	.	16g/	.	16g/	.	.	.	.	.	.	.	.	.	.	.	.	.	.	.	.	.
.	.	.	16a/	.	16a/	.	.	.	.	.	.	.	.	.	.	.	.	.	.	.	.	.
.	.	.	16b/JJ	.	16b/JJ	.	.	.	.	.	.	.	.	.	.	.	.	.	.	.	.	.
=19	=19	=19	=19	=19	=19	=19	=19	=19	=19	=19	=19	=19	=19-	=19-	=19-	=19	=19	=19	=19	=19	=19	=19
!	!	!LO:DY:b:t=for	!	!	!	!	!	!	!	!	!	!	!	!	!	!LO:TX:a:t=1.	!LO:TX:a:t=1.	!	!	!	!	!LO:DY:b:t=for
4C/	.	f	16cc\LL	.	16cc\LL	.	4C/	e-	4r	.	4r	.	1r	1r	1r	1r	1r	4cc\	4cc\	4cc\	4cc\	f
.	.	.	16cc\	.	16cc\	.	.	.	.	.	.	.	.	.	.	.	.	.	.	.	.	.
.	.	.	16cc\	.	16cc\	.	.	.	.	.	.	.	.	.	.	.	.	.	.	.	.	.
.	.	.	16cc\	.	16cc\JJ	.	.	.	.	.	.	.	.	.	.	.	.	.	.	.	.	.
4c\	.	.	16cc\	.	16ccc\LL	.	4c\	-lei-	4cc\	e-	4cc\	e-	.	.	.	.	.	4cc\	4ccc\	4cc\	4ccc\	.
.	.	.	16cc\	.	16ccc\	.	.	.	.	.	.	.	.	.	.	.	.	.	.	.	.	.
.	.	.	16cc\	.	16ccc\	.	.	.	.	.	.	.	.	.	.	.	.	.	.	.	.	.
.	.	.	16cc\JJ	.	16ccc\JJ	.	.	.	.	.	.	.	.	.	.	.	.	.	.	.	.	.
4A\	.	.	16a/LL	.	16aa\LL	.	4A\	.	[>4cc\	-lei-	(>4aa\	-lei-	.	.	.	.	.	4a\	4aa\	4a/	4aa\	.
.	.	.	16a/	.	16aa\	.	.	.	.	.	.	.	.	.	.	.	.	.	.	.	.	.
.	.	.	16a/	.	16aa\	.	.	.	.	.	.	.	.	.	.	.	.	.	.	.	.	.
.	.	.	16a/JJ	.	16aa\JJ	.	.	.	.	.	.	.	.	.	.	.	.	.	.	.	.	.
4F#X\	.	.	16f#X/LL	.	16ff#X\LL	.	4F#X\	.	4cc\]	.	4ff#X\)	.	.	.	.	.	.	4f#X/	4ff#X\	4f#X/	4ff#X\	.
.	.	.	16f#X/	.	16ff#X\	.	.	.	.	.	.	.	.	.	.	.	.	.	.	.	.	.
.	.	.	16f#X/	.	16ff#X\	.	.	.	.	.	.	.	.	.	.	.	.	.	.	.	.	.
.	.	.	16f#X/JJ	.	16ff#X\JJ	.	.	.	.	.	.	.	.	.	.	.	.	.	.	.	.	.
*	*	*	*Xtremolo	*	*	*	*	*	*	*	*	*	*	*	*	*	*	*	*	*	*	*
!	!	!	!LO:LB:g=original	!	!	!	!LO:LB:g=original	!	!LO:LB:g=original	!	!	!	!	!	!	!	!	!	!	!	!	!
=20	=20	=20	=20	=20	=20	=20	=20	=20	=20	=20	=20	=20	=20	=20	=20	=20	=20	=20	=20	=20	=20	=20
4G\	.	.	4G/ 4g/	.	4gg\	.	4G\	.	4b\	-son.	4gg\	-son.	4GG/	4G/	4g/	4G/	4g/	4g\	4gg\	4g/	4gg\	.
4GG/	.	.	4G/ 4b/	.	4bb\	.	4GG/	-son.	4r	.	4r	.	8GG/L	8G/L	8g/L	8G/L	8g/L	4dd\	4bb\	4dd\	4bb\	.
.	.	.	.	.	.	.	.	.	.	.	.	.	8GG/J	8G/J	8g/J	8G/J	8g/J	.	.	.	.	.
4G\	.	.	4G/ 4b/	.	4gg\	.	2r	.	2r	.	2r	.	4GG/	4G/	4g/	4G/	4g/	4b\	4gg\	4b\	4gg\	.
4r	.	.	4r	.	4r	.	.	.	.	.	.	.	4r	4r	4r	4r	4r	4r	4r	4r	4r	.
!LO:LB:g=original	!	!	!	!	!LO:LB:g=original	!	!	!	!	!	!	!	!	!	!	!	!	!	!	!	!	!
=21	=21	=21	=21	=21	=21	=21	=21	=21	=21	=21	=21	=21	=21	=21	=21	=21	=21	=21	=21	=21	=21	=21
!	!	!LO:DY:b:t=piano	!	!LO:DY:b:rj:t=p.	!	!LO:DY:b:t=p.	!LO:TX:a:t=2.	!	!LO:TX:a:t=2.	!	!LO:TX:a:t=2.	!	!	!LO:TX:a:t=1.	!LO:TX:a:t=1.	!	!	!	!	!	!	!
4GG/	.	p	2d/	p	2f/	p	0r	.	0r	.	0r	.	1r	1r	1r	2g/	2dd\	2dd\	2ff\	2dd\	2ff\	.
4r	.	.	.	.	.	.	.	.	.	.	.	.	.	.	.	.	.	.	.	.	.	.
4G\	.	.	8d/L	.	8f/L	.	.	.	.	.	.	.	.	.	.	4g/	4dd\	8dd\L	8ff\L	8dd\L	8ff\L	.
.	.	.	8B/	.	8d/	.	.	.	.	.	.	.	.	.	.	.	.	8b\	8dd\	8b\	8dd\	.
4r	.	.	8c/	.	8e/	.	.	.	.	.	.	.	.	.	.	8cc\L	8ee\L	8cc\	8ee\	8cc\	8ee\	.
.	.	.	8d/J	.	8f/J	.	.	.	.	.	.	.	.	.	.	8dd\J	8ff\J	8dd\J	8ff\J	8dd\J	8ff\J	.
!	!	!	!	!	!	!	!	!	!	!	!	!	!	!	!	!LO:LB:g=original	!	!	!	!	!	!
=22	=22	=22	=22	=22	=22	=22	=22-	=22	=22-	=22	=22-	=22	=22	=22	=22	=22	=22	=22	=22	=22	=22	=22
4C/	.	.	4e/	.	4g/	.	.	.	.	.	.	.	4C/	4cc\	4ee\	4cc\	4ee\	4ee\	4gg\	4ee\	4gg\	.
4c\	.	.	8e/L	.	8g/L	.	.	.	.	.	.	.	4C/	4cc\	4ee\	4cc\	4ee\	8ee\L	8gg\L	8ee\L	8gg\L	.
.	.	.	8c/J	.	8e/J	.	.	.	.	.	.	.	.	.	.	.	.	8cc\J	8ee\J	8cc\J	8ee\J	.
!	!	!	!	!LO:DY:b:t=for	!	!LO:DY:b:t=forte.	!	!	!	!	!	!	!	!	!	!	!	!	!	!	!	!
4C/	.	.	16e/LL	f	16g/LL	f	.	.	.	.	.	.	4C/	4cc\	4ee\	4cc\	4ee\	4ee\	4gg\	4ee\	4gg\	.
.	.	.	16c/	.	16c/	.	.	.	.	.	.	.	.	.	.	.	.	.	.	.	.	.
.	.	.	16d/	.	16d/	.	.	.	.	.	.	.	.	.	.	.	.	.	.	.	.	.
.	.	.	16e/JJ	.	16e/JJ	.	.	.	.	.	.	.	.	.	.	.	.	.	.	.	.	.
4r	.	.	16f/LL	.	16f/LL	.	.	.	.	.	.	.	4r	4r	4r	4r	4r	4r	4r	4r	4r	.
.	.	.	16g/	.	16g/	.	.	.	.	.	.	.	.	.	.	.	.	.	.	.	.	.
.	.	.	16a/	.	16a/	.	.	.	.	.	.	.	.	.	.	.	.	.	.	.	.	.
.	.	.	16b/JJ	.	16b/JJ	.	.	.	.	.	.	.	.	.	.	.	.	.	.	.	.	.
!	!	!	!	!	!	!	!	!	!	!	!LO:LB:g=original	!	!	!	!	!	!	!	!	!	!	!
=23	=23	=23	=23	=23	=23	=23	=23	=23	=23	=23	=23	=23	=23	=23	=23	=23	=23	=23	=23	=23	=23	=23
*	*	*	*tremolo	*	*	*	*	*	*	*	*	*	*	*	*	*	*	*	*	*	*	*
!	!	!LO:DY:b:t=for	!	!	!	!	!	!	!	!	!	!	!	!	!	!LO:TX:a:t=1.	!LO:TX:a:t=1.	!	!	!	!	!LO:DY:b:t=for
4C/	.	f	16cc\LL	.	16cc\LL	.	4c\	e-	(>4cc\	e-	(>4cc\	e-	1r	1r	1r	1r	1r	4cc\	4cc\	4cc\	4cc\	f
.	.	.	16cc\	.	16cc\	.	.	.	.	.	.	.	.	.	.	.	.	.	.	.	.	.
.	.	.	16cc\	.	16cc\	.	.	.	.	.	.	.	.	.	.	.	.	.	.	.	.	.
.	.	.	16cc\JJ	.	16cc\JJ	.	.	.	.	.	.	.	.	.	.	.	.	.	.	.	.	.
4D/	.	.	16dd\LL	.	16dd\LL	.	4B\	.	4b\)	.	4dd\)	.	.	.	.	.	.	4dd\	4ddn\	4dd\	4dd\	.
.	.	.	16dd\	.	16dd\	.	.	.	.	.	.	.	.	.	.	.	.	.	.	.	.	.
.	.	.	16dd\	.	16dd\	.	.	.	.	.	.	.	.	.	.	.	.	.	.	.	.	.
.	.	.	16dd\JJ	.	16dd\JJ	.	.	.	.	.	.	.	.	.	.	.	.	.	.	.	.	.
!	!	!	!	!	!	!	!	!	!	!	!	!	!	!	!	!	!	!	!	!LO:SIC:v:s:t=4ee-\	!	!
4E-X\	.	.	16ee-X\LL	.	16ee-X\LL	.	4c\	.	2cc\	-lei-	2ee-X\	-lei-	.	.	.	.	.	4ee\	4ee-\	4ee\	4ee-X\	.
.	.	.	16ee-X\	.	16ee-X\	.	.	.	.	.	.	.	.	.	.	.	.	.	.	.	.	.
.	.	.	16ee-X\	.	16ee-X\	.	.	.	.	.	.	.	.	.	.	.	.	.	.	.	.	.
.	.	.	16ee-X\JJ	.	16ee-X\JJ	.	.	.	.	.	.	.	.	.	.	.	.	.	.	.	.	.
4F#X\	.	.	16f#X/LL	.	16f#X/LL	.	4F#X\	-lei-	.	.	.	.	.	.	.	.	.	4cc\	4ff#X\	4cc\	4ff#X\	.
.	.	.	16f#X/	.	16f#X/	.	.	.	.	.	.	.	.	.	.	.	.	.	.	.	.	.
.	.	.	16f#X/	.	16f#X/	.	.	.	.	.	.	.	.	.	.	.	.	.	.	.	.	.
.	.	.	16f#X/JJ	.	16f#X/JJ	.	.	.	.	.	.	.	.	.	.	.	.	.	.	.	.	.
!	!	!	!	!	!	!	!	!	!	!	!	!	!	!	!	!	!LO:LB:g=original	!	!	!	!	!
=24	=24	=24	=24	=24	=24	=24	=24	=24	=24	=24	=24	=24	=24	=24	=24	=24	=24	=24	=24	=24	=24	=24
4G\	.	.	16g/LL	.	16g/LL	.	4G\	-son.	4b\	-son.	4dd\	-son.	4GG/	4G/	4g/	4G/	4g/	4b\	4gg\	4b\	4gg\	.
.	.	.	16g/	.	16g/	.	.	.	.	.	.	.	.	.	.	.	.	.	.	.	.	.
.	.	.	16g/	.	16g/	.	.	.	.	.	.	.	.	.	.	.	.	.	.	.	.	.
.	.	.	16g/JJ	.	16g/JJ	.	.	.	.	.	.	.	.	.	.	.	.	.	.	.	.	.
4r	.	.	16G/LL	.	16gg\LL	.	4r	.	4r	.	4r	.	4r	4r	4r	4r	4r	4b\	4gg\	4b\	4gg\	.
.	.	.	16G/	.	16gg\	.	.	.	.	.	.	.	.	.	.	.	.	.	.	.	.	.
.	.	.	16G/	.	16gg\	.	.	.	.	.	.	.	.	.	.	.	.	.	.	.	.	.
.	.	.	16G/JJ	.	16gg\JJ	.	.	.	.	.	.	.	.	.	.	.	.	.	.	.	.	.
2r	.	.	16B/LL	.	16ffn\LL	.	2r	.	2r	.	2r	.	2r	2r	2r	2r	2r	4dd\	4ffn\	4dd\	4ff\	.
.	.	.	16B/	.	16ffn\	.	.	.	.	.	.	.	.	.	.	.	.	.	.	.	.	.
.	.	.	16B/	.	16ffn\	.	.	.	.	.	.	.	.	.	.	.	.	.	.	.	.	.
.	.	.	16B/JJ	.	16ffn\JJ	.	.	.	.	.	.	.	.	.	.	.	.	.	.	.	.	.
.	.	.	16G/LL	.	16dd\LL	.	.	.	.	.	.	.	.	.	.	.	.	4b\	4dd\	4b\	4dd\	.
.	.	.	16G/	.	16dd\	.	.	.	.	.	.	.	.	.	.	.	.	.	.	.	.	.
.	.	.	16G/	.	16dd\	.	.	.	.	.	.	.	.	.	.	.	.	.	.	.	.	.
.	.	.	16G/JJ	.	16dd\JJ	.	.	.	.	.	.	.	.	.	.	.	.	.	.	.	.	.
!	!	!	!	!	!	!	!	!	!	!	!	!	!	!	!	!	!	!	!	!	!LO:LB:g=original	!
=25	=25	=25	=25	=25	=25	=25	=25	=25	=25	=25	=25	=25	=25	=25	=25	=25	=25	=25	=25	=25	=25	=25
!	!	!	!	!	!	!	!	!	!	!	!	!	!	!	!	!LO:TX:a:t=1.	!LO:TX:a:t=1.	!	!	!	!	!
4GG/	.	.	16c/LL	.	16ee-X\LL	.	4r	.	4r	.	4r	.	1r	1r	1r	1r	1r	4cc\	4ee-\	4cc\	4ee-X\	.
.	.	.	16c/	.	16ee-X\	.	.	.	.	.	.	.	.	.	.	.	.	.	.	.	.	.
.	.	.	16c/	.	16ee-X\	.	.	.	.	.	.	.	.	.	.	.	.	.	.	.	.	.
.	.	.	16c/JJ	.	16ee-X\JJ	.	.	.	.	.	.	.	.	.	.	.	.	.	.	.	.	.
4G\	.	.	16d/LL	.	16b\LL	.	4B\	e-	4dd\	e-	4ff\	e-	.	.	.	.	.	4b\	4b\	4b\	4b\	.
.	.	.	16d/	.	16b\	.	.	.	.	.	.	.	.	.	.	.	.	.	.	.	.	.
.	.	.	16d/	.	16b\	.	.	.	.	.	.	.	.	.	.	.	.	.	.	.	.	.
.	.	.	16d/JJ	.	16b\JJ	.	.	.	.	.	.	.	.	.	.	.	.	.	.	.	.	.
4A-X\	-5: 3:	.	16e-X/LL	.	16cc\LL	.	4c\	-lei-	2cc\	-lei-	2ee-X\	-lei-	.	.	.	.	.	4cc\	4cc\	4cc\	4cc\	.
.	.	.	16e-X/	.	16cc\	.	.	.	.	.	.	.	.	.	.	.	.	.	.	.	.	.
.	.	.	16e-X/	.	16cc\	.	.	.	.	.	.	.	.	.	.	.	.	.	.	.	.	.
.	.	.	16e-X/JJ	.	16cc\JJ	.	.	.	.	.	.	.	.	.	.	.	.	.	.	.	.	.
4F#X\	.	.	16c/LL	.	16f#X/LL	.	4F#X\	.	.	.	.	.	.	.	.	.	.	4cc\	4ff#X\	4cc\	4ff#X\	.
.	.	.	16c/	.	16f#X/	.	.	.	.	.	.	.	.	.	.	.	.	.	.	.	.	.
.	.	.	16c/	.	16f#X/	.	.	.	.	.	.	.	.	.	.	.	.	.	.	.	.	.
.	.	.	16c/JJ	.	16f#X/JJ	.	.	.	.	.	.	.	.	.	.	.	.	.	.	.	.	.
!	!	!	!	!	!	!	!	!	!	!	!	!	!	!	!	!	!	!LO:LB:g=original	!	!LO:LB:g=original	!	!
=26	=26	=26	=26	=26	=26	=26	=26	=26	=26	=26	=26	=26	=26	=26	=26	=26	=26	=26	=26	=26	=26	=26
4G\	.	.	16g/LL	.	16g/LL	.	4G\	-son.	4b\	-son.	4dd\	-son.	4GG/	4G/	4g/	4G/	4g/	4b\	4gg\	4b\	4gg\	.
.	.	.	16g/	.	16g/	.	.	.	.	.	.	.	.	.	.	.	.	.	.	.	.	.
.	.	.	16g/	.	16g/	.	.	.	.	.	.	.	.	.	.	.	.	.	.	.	.	.
.	.	.	16g/JJ	.	16g/JJ	.	.	.	.	.	.	.	.	.	.	.	.	.	.	.	.	.
4r	.	.	16G/LL	.	16gg\LL	.	4r	.	4r	.	4r	.	4r	4r	4r	4r	4r	4b\	4gg\	4b\	4gg\	.
.	.	.	16G/	.	16gg\	.	.	.	.	.	.	.	.	.	.	.	.	.	.	.	.	.
.	.	.	16G/	.	16gg\	.	.	.	.	.	.	.	.	.	.	.	.	.	.	.	.	.
.	.	.	16G/JJ	.	16gg\JJ	.	.	.	.	.	.	.	.	.	.	.	.	.	.	.	.	.
2r	.	.	4B/	.	16ffn\LL	.	2r	.	2r	.	2r	.	2r	2r	2r	2r	2r	4dd\	4ffn\	4dd\	4ff\	.
.	.	.	.	.	16ffn\	.	.	.	.	.	.	.	.	.	.	.	.	.	.	.	.	.
.	.	.	.	.	16ffn\	.	.	.	.	.	.	.	.	.	.	.	.	.	.	.	.	.
.	.	.	.	.	16ffn\JJ	.	.	.	.	.	.	.	.	.	.	.	.	.	.	.	.	.
.	.	.	16G/LL	.	16dd\LL	.	.	.	.	.	.	.	.	.	.	.	.	4b\	4dd\	4b\	4dd\	.
.	.	.	16G/	.	16dd\	.	.	.	.	.	.	.	.	.	.	.	.	.	.	.	.	.
.	.	.	16G/	.	16dd\	.	.	.	.	.	.	.	.	.	.	.	.	.	.	.	.	.
.	.	.	16G/JJ	.	16dd\JJ	.	.	.	.	.	.	.	.	.	.	.	.	.	.	.	.	.
!	!	!	!LO:LB:g=original	!	!	!	!	!	!	!	!	!	!	!	!LO:LB:g=original	!	!	!	!	!	!	!
=27	=27	=27	=27	=27	=27	=27	=27	=27	=27	=27	=27	=27	=27	=27	=27	=27	=27	=27	=27	=27	=27	=27
!	!	!	!	!	!	!	!	!	!LO:TX:t=P:problem=t. 27-28 zapisane jako repetycja	!	!	!	!	!	!	!LO:TX:a:t=1.	!	!	!	!	!	!
4GG/	.	.	16c/LL	.	16ee-X\LL	.	4r	.	4ryy	.	4r	.	1r	1r	1r	1r	1r	4cc\	4ee-\	4cc\	4ee-X\	.
.	.	.	16c/	.	16ee-X\	.	.	.	.	.	.	.	.	.	.	.	.	.	.	.	.	.
.	.	.	16c/	.	16ee-X\	.	.	.	.	.	.	.	.	.	.	.	.	.	.	.	.	.
.	.	.	16c/JJ	.	16ee-X\JJ	.	.	.	.	.	.	.	.	.	.	.	.	.	.	.	.	.
4G\	.	.	16d/LL	.	16b\LL	.	4B\	e-	4dd\yy	e-	4ff\	e-	.	.	.	.	.	4b\	4b\	4b\	4b\	.
.	.	.	16d/	.	16b\	.	.	.	.	.	.	.	.	.	.	.	.	.	.	.	.	.
.	.	.	16d/	.	16b\	.	.	.	.	.	.	.	.	.	.	.	.	.	.	.	.	.
.	.	.	16d/JJ	.	16b\JJ	.	.	.	.	.	.	.	.	.	.	.	.	.	.	.	.	.
4A-X\	-5 3	.	16e-X/LL	.	16cc\LL	.	4c\	-lei-	2cc\yy	-lei-	2ee-X\	-lei-	.	.	.	.	.	4cc\	4cc\	4cc\	4cc\	.
.	.	.	16e-X/	.	16cc\	.	.	.	.	.	.	.	.	.	.	.	.	.	.	.	.	.
.	.	.	16e-X/	.	16cc\	.	.	.	.	.	.	.	.	.	.	.	.	.	.	.	.	.
.	.	.	16e-X/JJ	.	16cc\JJ	.	.	.	.	.	.	.	.	.	.	.	.	.	.	.	.	.
4F#X\	.	.	16c/LL	.	16f#X/LL	.	(>4F#X\	.	.	.	.	.	.	.	.	.	.	4cc\	4ff#X\	4cc\	4ff#X\	.
.	.	.	16c/	.	16f#X/	.	.	.	.	.	.	.	.	.	.	.	.	.	.	.	.	.
.	.	.	16c/	.	16f#X/	.	.	.	.	.	.	.	.	.	.	.	.	.	.	.	.	.
.	.	.	16c/JJ	.	16f#X/JJ	.	.	.	.	.	.	.	.	.	.	.	.	.	.	.	.	.
=28	=28	=28	=28	=28	=28	=28	=28	=28	=28	=28	=28	=28	=28	=28	=28	=28	=28	=28	=28	=28	=28	=28
4G\	.	.	4B/	.	4g/	.	4G\)	-son.	4b\yy	-son.	4dd\	-son.	4GG/	4G/	4g/	4G/	4g/	4b\	4gg\	4b\	4gg\	.
4GG/	.	.	4G/ 4d/ 4b/	.	4G/ 4b/ 4gg/	.	4r	.	4ryy	.	4r	.	4GG/	4G/	4g/	4G/	4g/	4b\	4gg\	4b\	4gg\	.
4G\	.	.	4G/ 4d/ 4b/	.	4G/ 4b/ 4gg/	.	2r	.	2ryy	.	2r	.	4GG/	4G/	4g/	4G/	4g/	4b\	4gg\	4b\	4gg\	.
4r	.	.	4r	.	4r	.	.	.	.	.	.	.	4r	4r	4r	4r	4r	4r	4r	4r	4r	.
!LO:LB:g=original	!	!	!	!	!LO:LB:g=original	!	!LO:LB:g=original	!	!	!	!	!	!	!	!	!	!	!	!	!	!	!
=29	=29	=29	=29	=29	=29	=29	=29	=29	=29	=29	=29	=29	=29	=29	=29	=29	=29	=29	=29	=29	=29	=29
!!mixed beam:problem
!LO:TX:t=P:problem=mixed beam	!	!	!	!	!	!	!	!	!	!	!	!	!	!	!	!	!	!	!	!	!	!
!LO:TX:b:t=Tutti	!	!	!	!	!	!	!	!	!	!	!	!	!	!	!	!	!	!	!	!	!	!
8C/L	5 3	.	4G/ 4e	.	4cc\ 4ccc\	.	2c\	Ky-	2ee\	Ky-	2gg\	Ky-	2C/	2c/	2cc\	2c/	2cc\	2ee\	2gg\	2ee\	2gg\	.
8c\	.	.	.	.	.	.	.	.	.	.	.	.	.	.	.	.	.	.	.	.	.	.
8c\	.	.	16G/LL 16e	.	16ccc\LL	.	.	.	.	.	.	.	.	.	.	.	.	.	.	.	.	.
.	.	.	16g/	.	16gg\	.	.	.	.	.	.	.	.	.	.	.	.	.	.	.	.	.
8c\J	.	.	16f/	.	16aa\	.	.	.	.	.	.	.	.	.	.	.	.	.	.	.	.	.
.	.	.	16d/JJ	.	16bb\JJ	.	.	.	.	.	.	.	.	.	.	.	.	.	.	.	.	.
*tremolo	*	*	*	*	*	*	*	*	*	*	*	*	*	*	*	*	*	*	*	*	*	*
8c\L	.	.	16G/LL 16e	.	16ccc\LL	.	4c\	-ri-	4ee\	-ri-	4gg\	-ri-	4C/	4c/	4cc\	4c/	4cc\	4cc\	4ee\	4cc\	4ee\	.
.	.	.	16g/	.	16gg\	.	.	.	.	.	.	.	.	.	.	.	.	.	.	.	.	.
8c\	.	.	16f/	.	16aa\	.	.	.	.	.	.	.	.	.	.	.	.	.	.	.	.	.
.	.	.	16d/JJ	.	16bb\JJ	.	.	.	.	.	.	.	.	.	.	.	.	.	.	.	.	.
8c\	.	.	16G/LL 16e	.	16ccc\LL	.	4c\	-e	4ee\	-e	8gg\	-e	4C/	4c/	4cc\	4c/	4cc\	4cc\	4ee\	4cc\	4ee\	.
.	.	.	16g/	.	16gg\	.	.	.	.	.	.	.	.	.	.	.	.	.	.	.	.	.
8c\J	.	.	16f/	.	16ee\	.	.	.	.	.	8gg\	e-	.	.	.	.	.	.	.	.	.	.
.	.	.	16d/JJ	.	16cc\JJ	.	.	.	.	.	.	.	.	.	.	.	.	.	.	.	.	.
!	!	!	!	!	!	!	!	!	!	!	!LO:LB:g=original	!	!	!	!	!	!	!	!	!	!	!
=30	=30	=30	=30	=30	=30	=30	=30	=30	=30	=30	=30	=30	=30	=30	=30	=30	=30	=30	=30	=30	=30	=30
8c\L	6 4	.	4G/ 4f/	.	4cc\ 4aa\	.	2c\	lei-	2ff\	-lei-	2aa\	-lei-	4C/	4c/	4cc\	4c/	4cc\	4ff\	4aa\	4ff\	4aa\	.
8c\	.	.	.	.	.	.	.	.	.	.	.	.	.	.	.	.	.	.	.	.	.	.
8c\	7 2	.	4G/ 4d/	.	4dd\ 4bb\	.	.	.	.	.	.	.	4C/	4c/	4cc\	4c/	4cc\	4dd\	4bb\	4dd\	4bb\	.
8c\J	.	.	.	.	.	.	.	.	.	.	.	.	.	.	.	.	.	.	.	.	.	.
*Xtremolo	*	*	*	*	*	*	*	*	*	*	*	*	*	*	*	*	*	*	*	*	*	*
8c\L	.	.	4G/ 4e/	.	4ee\ 4ccc\	.	4c\	-son	4ee\	-son.	4gg\	-son	4C/	4c/	4cc\	4c/	4cc\	4ee\	4ccc\	4ee\	4ccc\	.
8G\	.	.	.	.	.	.	.	.	.	.	.	.	.	.	.	.	.	.	.	.	.	.
8E\	.	.	4r	.	4r	.	4c\	e-	4r	.	4r	.	4r	4r	4r	4r	4r	4r	4r	4r	4r	.
8G\J	.	.	.	.	.	.	.	.	.	.	.	.	.	.	.	.	.	.	.	.	.	.
!	!	!	!	!	!	!	!	!	!LO:LB:g=original	!	!	!	!LO:LB:g=original	!LO:LB:g=original	!	!	!	!	!	!	!	!
=31	=31	=31	=31	=31	=31	=31	=31	=31	=31	=31	=31	=31	=31	=31	=31	=31	=31	=31	=31	=31	=31	=31
!!mixed beam:problem
!LO:TX:t=P:problem=mixed beam	!	!	!	!	!	!	!	!	!	!	!	!	!	!	!	!	!	!	!	!	!	!
8C/L	.	.	4G/ 4e/	.	4cc\ 4ccc\	.	2c\	-lei-	2ee\	Ky-	2gg\	Ku-	2C/	2c/	2cc\	2c/	2cc\	2ee\	2gg\	2ee\	2gg\	.
8c\	.	.	.	.	.	.	.	.	.	.	.	.	.	.	.	.	.	.	.	.	.	.
8c\	.	.	16G/LL 16e/	.	16ccc\LL	.	.	.	.	.	.	.	.	.	.	.	.	.	.	.	.	.
.	.	.	16g/	.	16gg\	.	.	.	.	.	.	.	.	.	.	.	.	.	.	.	.	.
8c\J	.	.	16f/	.	16aa\	.	.	.	.	.	.	.	.	.	.	.	.	.	.	.	.	.
.	.	.	16d/JJ	.	16bb\JJ	.	.	.	.	.	.	.	.	.	.	.	.	.	.	.	.	.
*tremolo	*	*	*	*	*	*	*	*	*	*	*	*	*	*	*	*	*	*	*	*	*	*
8c\L	.	.	16G/LL 16e/	.	16ccc\LL	.	4c\	-son	4ee\	-ri-	4gg\	-ri-	4C/	4c/	4cc\	4c/	4cc\	4cc\	4ee\	4cc\	4ee\	.
.	.	.	16g/	.	16gg\	.	.	.	.	.	.	.	.	.	.	.	.	.	.	.	.	.
8c\	.	.	16f/	.	16aa\	.	.	.	.	.	.	.	.	.	.	.	.	.	.	.	.	.
.	.	.	16d/JJ	.	16bb\JJ	.	.	.	.	.	.	.	.	.	.	.	.	.	.	.	.	.
8c\	.	.	16G/LL 16e/	.	16ccc\LL	.	4c\	e-	4ee\	-e	8gg\	-e	4C/	4c/	4cc\	4c/	4cc\	4cc\	4ee\	4cc\	4ee\	.
.	.	.	16g/	.	16gg\	.	.	.	.	.	.	.	.	.	.	.	.	.	.	.	.	.
8c\J	.	.	16f/	.	16ee\	.	.	.	.	.	8gg\	e-	.	.	.	.	.	.	.	.	.	.
.	.	.	16d/JJ	.	16cc\JJ	.	.	.	.	.	.	.	.	.	.	.	.	.	.	.	.	.
*Xtremolo	*	*	*	*	*	*	*	*	*	*	*	*	*	*	*	*	*	*	*	*	*	*
=32	=32	=32	=32	=32	=32	=32	=32	=32	=32	=32	=32	=32	=32	=32	=32	=32	=32	=32	=32	=32	=32	=32
8G\L	7 X	.	4G/ 4d/	.	4g\ 4ff\	.	(>4G\	-lei-	2dd\	-lei-	2ff\	-lei-	4GG/	4G/	4g/	4G/	4g/	4dd\	4ff\	4dd\	4ff\	.
8G\	.	.	.	.	.	.	.	.	.	.	.	.	.	.	.	.	.	.	.	.	.	.
8A\	.	.	4G/ 4d/ 4b/	.	4g\ 4dd\	.	8A\L	.	.	.	.	.	4GG/	4G/	4g/	4G/	4g/	4b\	4dd\	4b\	4dd\	.
8B\J	.	.	.	.	.	.	8B\J	.	.	.	.	.	.	.	.	.	.	.	.	.	.	.
8c\L	X 3	.	4G/ 4d/ 4cc/	.	4g\ 4ee\	.	4c\)	-son	4cc\	-son.	4ee\	-son.	4C/	4c/	4cc\	4c/	4cc/	4cc\	4ee\	4cc\	4ee\	.
8G\	.	.	.	.	.	.	.	.	.	.	.	.	.	.	.	.	.	.	.	.	.	.
8E\	.	.	4r	.	4r	.	4r	.	4r	.	4r	.	4r	4r	4r	4r	4r	4r	4r	4r	4r	.
8G\J	.	.	.	.	.	.	.	.	.	.	.	.	.	.	.	.	.	.	.	.	.	.
!	!	!	!	!	!	!	!	!	!	!	!	!	!	!	!	!LO:LB:g=original	!	!	!LO:LB:g=original	!	!LO:LB:g=original	!
=33	=33	=33	=33	=33	=33	=33	=33	=33	=33	=33	=33	=33	=33	=33	=33	=33	=33	=33	=33	=33	=33	=33
*	*	*	*2\right	*	*	*	*	*	*	*	*	*	*	*	*	*	*	*	*	*	*	*
!!mixed beam:problem
!LO:TX:t=P:problem=mixed beam	!	!	!	!	!	!	!	!	!	!	!	!	!	!	!	!	!	!	!	!	!	!
8C/L	X 3	.	16cc\LL	.	16cc\LL	.	2c\	Ky-	2cc\	Ky-	2cc\	Ky-	2C/	2c/	2cc\	2c/	2cc\	2cc\	2cc\	2cc\	2cc\	.
.	.	.	16cc\	.	16cc\	.	.	.	.	.	.	.	.	.	.	.	.	.	.	.	.	.
8c\	.	.	16cc\	.	16cc\	.	.	.	.	.	.	.	.	.	.	.	.	.	.	.	.	.
.	.	.	16cc\	.	16cc\	.	.	.	.	.	.	.	.	.	.	.	.	.	.	.	.	.
8c\	.	.	16cc\	.	16cc\	.	.	.	.	.	.	.	.	.	.	.	.	.	.	.	.	.
.	.	.	16cc\	.	16cc\	.	.	.	.	.	.	.	.	.	.	.	.	.	.	.	.	.
8c\J	.	.	16cc\	.	16cc\	.	.	.	.	.	.	.	.	.	.	.	.	.	.	.	.	.
.	.	.	16cc\JJ	.	16cc\JJ	.	.	.	.	.	.	.	.	.	.	.	.	.	.	.	.	.
*tremolo	*	*	*	*	*	*	*	*	*	*	*	*	*	*	*	*	*	*	*	*	*	*
8B-X\L	4 2	.	16cc\LL	.	16ee\LL	.	2B-X\	-ri-	2cc\	-ri-	2ee\	-ri-	2C/	4c/	2cc\	2c/	2cc\	2cc\	2ee\	2cc\	2ee\	.
.	.	.	16cc\	.	16ee\	.	.	.	.	.	.	.	.	.	.	.	.	.	.	.	.	.
8B-X\	.	.	16cc\	.	16ee\	.	.	.	.	.	.	.	.	.	.	.	.	.	.	.	.	.
.	.	.	16cc\	.	16ee\	.	.	.	.	.	.	.	.	.	.	.	.	.	.	.	.	.
8B-X\	.	.	16cc\	.	16ee\	.	.	.	.	.	.	.	.	4c/	.	.	.	.	.	.	.	.
.	.	.	16cc\	.	16ee\	.	.	.	.	.	.	.	.	.	.	.	.	.	.	.	.	.
8B-X\J	.	.	16cc\	.	16ee\	.	.	.	.	.	.	.	.	.	.	.	.	.	.	.	.	.
.	.	.	16cc\JJ	.	16ee\JJ	.	.	.	.	.	.	.	.	.	.	.	.	.	.	.	.	.
*Xtremolo	*	*	*	*	*	*	*	*	*	*	*	*	*	*	*	*	*	*	*	*	*	*
!	!	!	!LO:LB:g=original	!	!	!	!	!	!	!	!	!	!	!	!	!	!	!	!	!LO:LB:g=original	!	!
=34	=34	=34	=34	=34	=34	=34	=34	=34	=34	=34	=34	=34	=34	=34	=34	=34	=34	=34	=34	=34	=34	=34
8A\L	6 3	.	16cc\LL	.	16ff\LL	.	4A\	-e	4cc\	-e	4dd\	-e.	4C/	4c/	4cc\	4c/	4cc\	4cc\	4ff\	4cc\	4ff\	.
.	.	.	16cc\	.	16ff\	.	.	.	.	.	.	.	.	.	.	.	.	.	.	.	.	.
8A\	.	.	16cc\	.	16ff\	.	.	.	.	.	.	.	.	.	.	.	.	.	.	.	.	.
.	.	.	16cc\	.	16ff\JJ	.	.	.	.	.	.	.	.	.	.	.	.	.	.	.	.	.
8G\	6 3	.	16cc\	.	16gg\LL	.	4r	.	4r	.	4r	.	4C/	4c/	4cc\	4c/	4cc\	4ee\	4gg\	4ee\	4gg\	.
.	.	.	16cc\	.	16gg\	.	.	.	.	.	.	.	.	.	.	.	.	.	.	.	.	.
8G\J	.	.	16cc\	.	16gg\	.	.	.	.	.	.	.	.	.	.	.	.	.	.	.	.	.
.	.	.	16cc\JJ	.	16gg\JJ	.	.	.	.	.	.	.	.	.	.	.	.	.	.	.	.	.
*tremolo	*	*	*	*	*	*	*	*	*	*	*	*	*	*	*	*	*	*	*	*	*	*
8F\L	.	.	4cc\	.	4aa\	.	2r	.	2r	.	2r	.	4C/	4c/	4cc\	4c/	4cc\	4ff\	4aa\	4gg\	4aa\	.
8F\	.	.	.	.	.	.	.	.	.	.	.	.	.	.	.	.	.	.	.	.	.	.
8F\	.	.	4r	.	4r	.	.	.	.	.	.	.	4r	4r	4r	4r	4r	4r	4r	4r	4r	.
8F\J	.	.	.	.	.	.	.	.	.	.	.	.	.	.	.	.	.	.	.	.	.	.
*	*	*	*	*	*	*	*	*	*	*	*	*	*	*	*	*	*	*	*	*	*	*
!LO:LB:g=original	!	!	!	!	!	!	!LO:LB:g=original	!	!	!	!	!	!	!	!	!LO:LB:g=original	!	!LO:LB:g=original	!	!	!	!
=35	=35	=35	=35	=35	=35	=35	=35	=35	=35	=35	=35	=35	=35	=35	=35	=35	=35	=35	=35	=35	=35	=35
!	!	!	!	!	!	!	!	!	!	!	!	!	!LO:TX:a:t=2.	!LO:TX:a:t=2.	!LO:TX:a:t=2	!LO:TX:a:t=2.	!LO:TX:a:t=2.	!	!	!	!	!
8A\L	# X	.	16a/LL	.	16a/LL	.	2A\	Ky-	2a\	Ky-	2a\	Ky-	0r	0r	0r	0r	0r	2a/	2a\	2a/	2a/	.
.	.	.	16a/	.	16a/	.	.	.	.	.	.	.	.	.	.	.	.	.	.	.	.	.
8A\	.	.	16a/	.	16a/	.	.	.	.	.	.	.	.	.	.	.	.	.	.	.	.	.
.	.	.	16a/	.	16a/	.	.	.	.	.	.	.	.	.	.	.	.	.	.	.	.	.
8A\	.	.	16a/	.	16a/	.	.	.	.	.	.	.	.	.	.	.	.	.	.	.	.	.
.	.	.	16a/	.	16a/	.	.	.	.	.	.	.	.	.	.	.	.	.	.	.	.	.
8A\J	.	.	16a/	.	16a/	.	.	.	.	.	.	.	.	.	.	.	.	.	.	.	.	.
.	.	.	16a/JJ	.	16a/JJ	.	.	.	.	.	.	.	.	.	.	.	.	.	.	.	.	.
8G\L	# 2	.	16a/LL	.	16cc#X\LL	.	2G\	-ri-	2a\	-ri-	2cc#X\	-ri-	.	.	.	.	.	2a/	2cc#X\	2a/	2cc#X\	.
.	.	.	16a/	.	16cc#X\	.	.	.	.	.	.	.	.	.	.	.	.	.	.	.	.	.
8G\	.	.	16a/	.	16cc#X\	.	.	.	.	.	.	.	.	.	.	.	.	.	.	.	.	.
.	.	.	16a/	.	16cc#X\	.	.	.	.	.	.	.	.	.	.	.	.	.	.	.	.	.
8G\	.	.	16a/	.	16cc#X\	.	.	.	.	.	.	.	.	.	.	.	.	.	.	.	.	.
.	.	.	16a/	.	16cc#X\	.	.	.	.	.	.	.	.	.	.	.	.	.	.	.	.	.
8G\J	.	.	16a/	.	16cc#X\	.	.	.	.	.	.	.	.	.	.	.	.	.	.	.	.	.
.	.	.	16a/JJ	.	16cc#X\JJ	.	.	.	.	.	.	.	.	.	.	.	.	.	.	.	.	.
*Xtremolo	*	*	*	*	*	*	*	*	*	*	*	*	*	*	*	*	*	*	*	*	*	*
!	!	!	!	!	!LO:LB:g=original	!	!	!	!	!	!	!	!	!	!	!	!	!	!	!	!	!
=36	=36	=36	=36	=36	=36	=36	=36	=36	=36	=36	=36	=36	=36-	=36-	=36-	=36-	=36-	=36	=36	=36	=36	=36
!	!	!	!LO:N:vis=2	!	!	!	!	!	!	!	!	!	!	!	!	!	!	!	!	!	!	!
8F\L	6 3	.	16a/LL	.	16dd\LL	.	4F\	-e	4a\	-e	4dd\	-e.	.	.	.	.	.	4a\	4dd\	4a/	4dd\	.
.	.	.	16a/	.	16dd\	.	.	.	.	.	.	.	.	.	.	.	.	.	.	.	.	.
8F\	.	.	16a/	.	16dd\	.	.	.	.	.	.	.	.	.	.	.	.	.	.	.	.	.
.	.	.	16a/JJ	.	16dd\JJ	.	.	.	.	.	.	.	.	.	.	.	.	.	.	.	.	.
8E\	6 3	.	16a/LL	.	16ee\LL	.	4r	.	4r	.	4r	.	.	.	.	.	.	4cc#X\	4ee\	4cc#X\	4ee\	.
.	.	.	16a/	.	16ee\	.	.	.	.	.	.	.	.	.	.	.	.	.	.	.	.	.
8E\J	.	.	16a/	.	16ee\	.	.	.	.	.	.	.	.	.	.	.	.	.	.	.	.	.
.	.	.	16a/JJ	.	16ee\JJ	.	.	.	.	.	.	.	.	.	.	.	.	.	.	.	.	.
*tremolo	*	*	*	*	*	*	*	*	*	*	*	*	*	*	*	*	*	*	*	*	*	*
8D\L	.	.	4a/	.	4ff\	.	2r	.	2r	.	2r	.	.	.	.	.	.	4dd\	4ff\	4dd\	4ff\	.
8D\	.	.	.	.	.	.	.	.	.	.	.	.	.	.	.	.	.	.	.	.	.	.
8D\	.	.	4r	.	4r	.	.	.	.	.	.	.	.	.	.	.	.	4r	4r	4r	4r	.
8D\J	.	.	.	.	.	.	.	.	.	.	.	.	.	.	.	.	.	.	.	.	.	.
=37	=37	=37	=37	=37	=37	=37	=37	=37	=37	=37	=37	=37	=37	=37	=37	=37	=37	=37	=37	=37	=37	=37
8G\L	X 3	.	16g/LL	.	16g/LL	.	2G\	Ky-	2g\	Ky-	2g\	Ky-	2GG/	2G/	2g/	2G/	2g/	2g/	2g/	2g/	2g/	.
.	.	.	16g/	.	16g/	.	.	.	.	.	.	.	.	.	.	.	.	.	.	.	.	.
8G\	.	.	16g/	.	16g/	.	.	.	.	.	.	.	.	.	.	.	.	.	.	.	.	.
.	.	.	16g/	.	16g/	.	.	.	.	.	.	.	.	.	.	.	.	.	.	.	.	.
8G\	.	.	16g/	.	16g/	.	.	.	.	.	.	.	.	.	.	.	.	.	.	.	.	.
.	.	.	16g/	.	16g/	.	.	.	.	.	.	.	.	.	.	.	.	.	.	.	.	.
8G\J	.	.	16g/	.	16g/	.	.	.	.	.	.	.	.	.	.	.	.	.	.	.	.	.
.	.	.	16g/JJ	.	16g/JJ	.	.	.	.	.	.	.	.	.	.	.	.	.	.	.	.	.
8F\L	4 2	.	16g/LL	.	16b/LL	.	2F\	-ri-	2g\	-ri-	2b\	-ri-	2GG/	2G/	2g/	2G/	2g/	2g/	2b/	2g/	2b/	.
.	.	.	16g/	.	16b/	.	.	.	.	.	.	.	.	.	.	.	.	.	.	.	.	.
8F\	.	.	16g/	.	16b/	.	.	.	.	.	.	.	.	.	.	.	.	.	.	.	.	.
.	.	.	16g/	.	16b/	.	.	.	.	.	.	.	.	.	.	.	.	.	.	.	.	.
8F\	.	.	16g/	.	16b/	.	.	.	.	.	.	.	.	.	.	.	.	.	.	.	.	.
.	.	.	16g/	.	16b/	.	.	.	.	.	.	.	.	.	.	.	.	.	.	.	.	.
8F\J	.	.	16g/	.	16b/	.	.	.	.	.	.	.	.	.	.	.	.	.	.	.	.	.
.	.	.	16g/JJ	.	16b/JJ	.	.	.	.	.	.	.	.	.	.	.	.	.	.	.	.	.
*Xtremolo	*	*	*	*	*	*	*	*	*	*	*	*	*	*	*	*	*	*	*	*	*	*
!	!	!	!	!	!	!	!	!	!	!	!LO:LB:g=original	!	!	!	!LO:LB:g=original	!	!	!	!	!	!	!
=38	=38	=38	=38	=38	=38	=38	=38	=38	=38	=38	=38	=38	=38	=38	=38	=38	=38	=38	=38	=38	=38	=38
8E\L	6 3	.	16g/LL	.	16cc\LL	.	4E\	-e	4c\	-e	4ccn\	-e	4GG/	4G/	4g/	4G/	4g/	4g/	4cc\	4g/	4cc\	.
.	.	.	16g/	.	16cc\	.	.	.	.	.	.	.	.	.	.	.	.	.	.	.	.	.
8E\	.	.	16g/	.	16cc\	.	.	.	.	.	.	.	.	.	.	.	.	.	.	.	.	.
.	.	.	16g/	.	16cc\JJ	.	.	.	.	.	.	.	.	.	.	.	.	.	.	.	.	.
8BB\	6 X	.	16g/	.	16dd\LL	.	4r	.	4r	.	4r	.	8GG/L	8G/L	8g/L	8G/L	8g/L	4b\	4dd\	4b/	4dd\	.
.	.	.	16g/	.	16dd\	.	.	.	.	.	.	.	.	.	.	.	.	.	.	.	.	.
8BB\J	.	.	16g/	.	16dd\	.	.	.	.	.	.	.	8GG/J	8G/J	8g/J	8G/J	8g/J	.	.	.	.	.
.	.	.	16g/JJ	.	16dd\JJ	.	.	.	.	.	.	.	.	.	.	.	.	.	.	.	.	.
8C\L	.	.	16g/LL	.	16ee\LL	.	4r	.	4r	.	4r	.	4GG/	4G/	4g/	4G/	4g/	4cc\	4ee\	4cc\	4ee\	.
.	.	.	16g/	.	16ee\	.	.	.	.	.	.	.	.	.	.	.	.	.	.	.	.	.
8C\	.	.	16g/	.	16ee\	.	.	.	.	.	.	.	.	.	.	.	.	.	.	.	.	.
.	.	.	16g/JJ	.	16ee\JJ	.	.	.	.	.	.	.	.	.	.	.	.	.	.	.	.	.
8E\	.	.	16cc/LL	.	16gg\LL	.	4C/	e-	4ee\	e-	4gg\	e-	4GG/	4G/	4g/	4G/	4g/	4ee\	4gg\	4ee\	4gg\	.
.	.	.	16cc/	.	16gg\	.	.	.	.	.	.	.	.	.	.	.	.	.	.	.	.	.
8E\J	.	.	16cc/	.	16gg\	.	.	.	.	.	.	.	.	.	.	.	.	.	.	.	.	.
.	.	.	16cc/JJ	.	16gg\JJ	.	.	.	.	.	.	.	.	.	.	.	.	.	.	.	.	.
!	!	!	!	!	!	!	!	!	!LO:LB:g=original	!	!	!	!	!	!	!	!	!	!	!	!	!
=39	=39	=39	=39	=39	=39	=39	=39	=39	=39	=39	=39	=39	=39	=39	=39	=39	=39	=39	=39	=39	=39	=39
8D/L	6 3	.	16d/ 16bLL/	.	4ff\	.	2G\	-lei-	2dd\	-lei-	2ff\	-lei-	8GG/L	8G/L	8g/L	8G/L	8g/L	8dd\L	8ff\L	8dd\L	8ff\L	.
.	.	.	16d/ 16b/	.	.	.	.	.	.	.	.	.	.	.	.	.	.	.	.	.	.	.
8GG/	.	.	16d/ 16b/	.	.	.	.	.	.	.	.	.	8GG/J	8G/J	8g/J	8G/J	8g/J	8dd\J	8ff\J	8dd\J	8ff\J	.
.	.	.	16d/ 16b/	.	.	.	.	.	.	.	.	.	.	.	.	.	.	.	.	.	.	.
8D/	.	.	16d/ 16b/	.	16gg\LL	.	.	.	.	.	.	.	4GG/	4G/	4g/	4G/	4g/	4b\	4dd\	4b\	4dd\	.
.	.	.	16d/ 16b/	.	16ff\	.	.	.	.	.	.	.	.	.	.	.	.	.	.	.	.	.
8GG/J	.	.	16d/ 16b/	.	16dd\	.	.	.	.	.	.	.	.	.	.	.	.	.	.	.	.	.
.	.	.	16d/ 16bJJ/	.	16b\JJ	.	.	.	.	.	.	.	.	.	.	.	.	.	.	.	.	.
8E/L	6 3	.	16e/ 16ccLL/	.	16cc\LL	.	4G\	-son	4cc\	-son	4ee\	-son	4GG/	4G/	4g/	4G/	4g/	4cc\	4ee\	4cc\	4ee\	.
.	.	.	16e/ 16cc/	.	16ee\	.	.	.	.	.	.	.	.	.	.	.	.	.	.	.	.	.
8GG/	.	.	16e/ 16cc/	.	16aa\	.	.	.	.	.	.	.	.	.	.	.	.	.	.	.	.	.
.	.	.	16e/ 16cc/	.	16gg\JJ	.	.	.	.	.	.	.	.	.	.	.	.	.	.	.	.	.
8E/	.	.	16e/ 16cc/	.	16ff#X\LL	.	4G\	e-	4ee\	e-	4gg\	e-	8r	8r	8r	8r	8r	8r	8r	8r	8r	.
.	.	.	16e/ 16cc/	.	16gg\	.	.	.	.	.	.	.	.	.	.	.	.	.	.	.	.	.
8GG/J	.	.	16e/ 16cc/	.	16ee\	.	.	.	.	.	.	.	8GG/	8G/	8g/	8G/	8g/	8ee\	8gg\	8ee\	8gg\	.
.	.	.	16e/ 16ccJJ/	.	16cc\JJ	.	.	.	.	.	.	.	.	.	.	.	.	.	.	.	.	.
=40	=40	=40	=40	=40	=40	=40	=40	=40	=40	=40	=40	=40	=40	=40	=40	=40	=40	=40	=40	=40	=40	=40
8D/L	6 3	.	16d/ 16bLL/	.	4ffn\	.	2G\	-lei-	2dd\	-lei-	2ff\	-lei-	8GG/L	8G/L	8g/L	8G/L	8g/L	8dd\L	8ff\L	8dd\L	8ff\L	.
.	.	.	16d/ 16b/	.	.	.	.	.	.	.	.	.	.	.	.	.	.	.	.	.	.	.
8GG/	.	.	16d/ 16b/	.	.	.	.	.	.	.	.	.	8GG/J	8G/J	8g/J	8G/J	8g/J	8dd\J	8ff\J	8dd\J	8ff\J	.
.	.	.	16d/ 16b/	.	.	.	.	.	.	.	.	.	.	.	.	.	.	.	.	.	.	.
8D/	.	.	16d/ 16b/	.	16gg\LL	.	.	.	.	.	.	.	4GG/	4G/	4g/	4G/	4g/	4b\	4dd\	4b\	4dd\	.
.	.	.	16d/ 16b/	.	16ff\	.	.	.	.	.	.	.	.	.	.	.	.	.	.	.	.	.
8GG/J	.	.	16d/ 16b/	.	16dd\	.	.	.	.	.	.	.	.	.	.	.	.	.	.	.	.	.
.	.	.	16d/ 16bJJ/	.	16b\JJ	.	.	.	.	.	.	.	.	.	.	.	.	.	.	.	.	.
8E/L	6 3	.	16e/ 16ccLL/	.	16cc\LL	.	4G\	-son	4cc\	-son	4ee\	-son	4GG/	4G/	4g/	4G/	4g/	4cc\	4ee\	4cc\	4ee\	.
.	.	.	16e/ 16cc/	.	16ee\	.	.	.	.	.	.	.	.	.	.	.	.	.	.	.	.	.
8GG/	.	.	16e/ 16cc/	.	16aa\	.	.	.	.	.	.	.	.	.	.	.	.	.	.	.	.	.
.	.	.	16e/ 16cc/	.	16gg\JJ	.	.	.	.	.	.	.	.	.	.	.	.	.	.	.	.	.
8E/	.	.	16e/ 16cc/	.	16ff#X\LL	.	4G\	e-	8ee\L	e-	8gg\L	e-	4r	4r	4r	4r	4r	4r	4r	4r	4r	.
.	.	.	16e/ 16cc/	.	16gg\	.	.	.	.	.	.	.	.	.	.	.	.	.	.	.	.	.
8GG/J	.	.	16e/ 16cc/	.	16ee\	.	.	.	8cc\J	.	8ee\J	.	.	.	.	.	.	.	.	.	.	.
.	.	.	16e/ 16ccJJ/	.	16cc\JJ	.	.	.	.	.	.	.	.	.	.	.	.	.	.	.	.	.
!	!	!	!	!	!	!	!	!	!	!	!	!	!LO:LB:g=original	!LO:LB:g=original	!	!	!	!	!LO:LB:g=original	!	!	!
=41	=41	=41	=41	=41	=41	=41	=41	=41	=41	=41	=41	=41	=41	=41	=41	=41	=41	=41	=41	=41	=41	=41
8D/L	.	.	4G/ 4d/ 4b/	.	4b/	.	4G\	-lei-	4cc\	-lei-	4ee\	-lei-	4GG/	4G/	4g/	4G/	4g/	4b\	4dd\	4b\	4dd\	.
8G/	.	.	.	.	.	.	.	.	.	.	.	.	.	.	.	.	.	.	.	.	.	.
8D/	.	.	4G/ 4d/ 4b/	.	4d/ 4b/ 4gg/	.	4G\	-ſon.	4b\	-son.	4dd\	-son.	4GG/	4G/	4g/	4G/	4g/	4b\	4gg\	4b\	4gg\	.
8BB/J	.	.	.	.	.	.	.	.	.	.	.	.	.	.	.	.	.	.	.	.	.	.
4GG/	.	.	4G/ 4d/ 4b/	.	4d/ 4b/ 4gg/	.	2r	.	2r	.	2r	.	4GG/	4G/	4g/	4G/	4g/	4b\	4gg\	4b\	4gg\	.
4r	.	.	4r	.	4r	.	.	.	.	.	.	.	4r	4r	4r	4r	4r	4r	4r	4r	4r	.
!LO:LB:g=original	!	!	!	!	!	!	!LO:LB:g=original	!	!LO:LB:g=original	!	!	!	!	!	!	!	!	!	!	!LO:LB:g=original	!LO:LB:g=original	!
=42	=42	=42	=42	=42	=42	=42	=42	=42	=42	=42	=42	=42	=42	=42	=42	=42	=42	=42	=42	=42	=42	=42
!	!	!LO:DY:b:t=piano	!	!LO:DY:b:t=piano.	!	!	!LO:TX:a:t=9.	!	!LO:TX:a:t=9.	!	!LO:TX:a:t=9.	!	!	!	!	!	!	!LO:TX:a:t=Solo	!LO:TX:a:t=Solo	!LO:TX:a:t=Solo.	!LO:TX:a:t=Solo	!
4C/	.	p	4r	p	4r	.	00r	.	00r	.	00r	.	4C/	4c/	4cc\	4c/	4cc\	4cc\	4ee\	4cc\	4ee\	.
!	!	!	!LO:TX:b:t=|:problem	!	!	!LO:DY:b:t=piano.	!	!	!	!	!	!	!	!	!	!	!	!	!	!	!	!
4r	.	.	4c/	.	4e/	p	.	.	.	.	.	.	4r	4r	4r	4r	4r	8cc\L	8ee\L	8cc\L	8ee\L	.
.	.	.	.	.	.	.	.	.	.	.	.	.	.	.	.	.	.	8cc\J	8ee\J	8cc\J	8ee\J	.
!	!	!	!LO:TX:b:t=|:problem	!	!	!	!	!	!	!	!	!	!	!	!	!	!	!	!	!	!	!
2r	.	.	4e/	.	4g/	.	.	.	.	.	.	.	2r	2r	2r	2r	2r	8cc\L	8ee\L	8cc\L	8ee\L	.
.	.	.	.	.	.	.	.	.	.	.	.	.	.	.	.	.	.	8b\	8dd\	8b\	8dd\	.
!	!	!	!LO:TX:b:t=|:problem	!	!	!	!	!	!	!	!	!	!	!	!	!	!	!	!	!	!	!
.	.	.	4d/	.	4f/	.	.	.	.	.	.	.	.	.	.	.	.	8a\	8ff\	8a\	8ff\	.
.	.	.	.	.	.	.	.	.	.	.	.	.	.	.	.	.	.	8f\J	8dd\J	8f\J	8dd\J	.
!	!	!	!	!	!LO:LB:g=original	!	!	!	!	!	!	!	!	!	!	!	!	!LO:LB:g=original	!	!	!	!
=43	=43	=43	=43	=43	=43	=43	=43-	=43	=43-	=43	=43-	=43	=43	=43	=43	=43	=43	=43	=43	=43	=43	=43
!	!	!	!	!	!	!	!	!	!	!	!	!	!	!LO:TX:a:t=1.	!	!	!	!	!	!	!	!
4C/	.	.	4c/	.	4e/	.	.	.	.	.	.	.	1r	1r	1r	4r	4r	4e/	4cc\	4e/	4cc\	.
4r	.	.	4r	.	4r	.	.	.	.	.	.	.	.	.	.	8ee\L	8gg\L	4r	4r	4r	4r	.
.	.	.	.	.	.	.	.	.	.	.	.	.	.	.	.	8ee\J	8gg\J	.	.	.	.	.
2r	.	.	2r	.	2r	.	.	.	.	.	.	.	.	.	.	4ee\	4gg\	8r	8r	8r	8r	.
.	.	.	.	.	.	.	.	.	.	.	.	.	.	.	.	.	.	8cc\L	8cc\L	8cc\L	8cc\L	.
.	.	.	.	.	.	.	.	.	.	.	.	.	.	.	.	4cc\	4ee\	8b\	8dd\	8b\	8dd\	.
.	.	.	.	.	.	.	.	.	.	.	.	.	.	.	.	.	.	8cc\J	8ee\J	8cc\J	8ee\J	.
!	!	!	!	!	!	!	!	!	!	!	!	!	!	!	!	!LO:LB:g=original	!	!	!	!	!	!
=44	=44	=44	=44	=44	=44	=44	=44-	=44	=44-	=44	=44-	=44	=44	=44	=44	=44	=44	=44	=44	=44	=44	=44
4GG/	.	.	4r	.	4r	.	.	.	.	.	.	.	4BB/	4g/	4dd\	4g/	4dd\	4dd\	4ff\	4dd\	4ff\	.
!	!	!	!	!	!LO:TX:b:t=|:problem	!	!	!	!	!	!	!	!	!	!	!	!	!	!	!	!	!
4r	.	.	4B/	.	4d/	.	.	.	.	.	.	.	4r	4r	4r	4r	4r	8dd\L	8ff\L	8dd\L	8ff\L	.
.	.	.	.	.	.	.	.	.	.	.	.	.	.	.	.	.	.	8dd\J	8ff\J	8dd\J	8ff\J	.
2r	.	.	4d/	.	(<4f/	.	.	.	.	.	.	.	2r	2r	2r	2r	2r	8dd\L	8ff\L	8dd\L	8ff\L	.
.	.	.	.	.	.	.	.	.	.	.	.	.	.	.	.	.	.	8cc\	8ee\	8cc\	8ee\	.
.	.	.	4c/	.	4e/)	.	.	.	.	.	.	.	.	.	.	.	.	8ee\	8gg\	8ee\	8gg\	.
.	.	.	.	.	.	.	.	.	.	.	.	.	.	.	.	.	.	8cc\J	8ee\J	8cc\J	8ee\J	.
!	!	!	!LO:LB:g=original	!	!	!	!	!	!	!	!	!	!	!	!	!	!	!	!	!	!	!
=45	=45	=45	=45	=45	=45	=45	=45-	=45	=45-	=45	=45-	=45	=45	=45	=45	=45	=45	=45	=45	=45	=45	=45
!	!	!	!	!	!	!	!	!	!	!	!	!	!	!	!LO:TX:a:t=1.	!	!	!	!	!	!	!
4GG/	.	.	4B/	.	4d/	.	.	.	.	.	.	.	1r	1r	1r	4r	4r	4b\	4dd\	4b\	4dd\	.
4r	.	.	4r	.	4r	.	.	.	.	.	.	.	.	.	.	8g/L	8dd\L	4r	4r	4r	4r	.
.	.	.	.	.	.	.	.	.	.	.	.	.	.	.	.	8g/J	8dd\J	.	.	.	.	.
2r	.	.	2r	.	2r	.	.	.	.	.	.	.	.	.	.	4cc\	4ee\	8r	8r	8r	8r	.
.	.	.	.	.	.	.	.	.	.	.	.	.	.	.	.	.	.	8b\L	8dd\L	8b\L	8dd\L	.
.	.	.	.	.	.	.	.	.	.	.	.	.	.	.	.	4dd\	4ff\	8cc\	8ee\	8cc\	8ee\	.
.	.	.	.	.	.	.	.	.	.	.	.	.	.	.	.	.	.	8dd\J	8ff\J	8dd\J	8ff\J	.
!	!	!	!	!	!	!	!	!	!	!	!	!	!	!	!	!	!LO:LB:g=original	!	!	!	!	!
=46	=46	=46	=46	=46	=46	=46	=46-	=46	=46	=46	=46-	=46	=46	=46	=46	=46	=46	=46	=46	=46	=46	=46
4C/	.	.	4r	.	4r	.	00r	.	00r	.	00r	.	4E\	4cc\	4ee\	4cc\	4ee\	4ee\	4gg\	4ee\	4gg\	.
4r	.	.	4c'</	.	4e/	.	.	.	.	.	.	.	4r	4r	4r	4r	4r	8ee\L	8gg\L	8ee\L	8gg\L	.
.	.	.	.	.	.	.	.	.	.	.	.	.	.	.	.	.	.	8ee\J	8gg\J	8ee\J	8gg\J	.
4GG/	.	.	4B/	.	4d/	.	.	.	.	.	.	.	2r	2r	2r	2r	2r	4ee\	4gg\	4ee\	4gg\	.
4r	.	.	4d/	.	4f/	.	.	.	.	.	.	.	.	.	.	.	.	8ff\L	8aa\L	8ff\L	8aa\L	.
.	.	.	.	.	.	.	.	.	.	.	.	.	.	.	.	.	.	8ee\J	8ff\J	8dd\J	8ff\J	.
!	!	!	!	!	!	!	!	!	!	!	!	!	!	!	!LO:LB:g=original	!	!	!	!LO:LB:g=original	!	!	!
=47	=47	=47	=47	=47	=47	=47	=47-	=47	=47-	=47	=47-	=47	=47	=47	=47	=47	=47	=47	=47	=47	=47	=47
!	!	!	!	!	!	!	!	!	!	!	!	!	!	!	!	!LO:TX:a:t=1.	!LO:TX:a:t=1.	!	!	!	!	!
4CC/	.	.	4c/	.	4e/	.	.	.	.	.	.	.	1r	1r	1r	1r	1r	4cc\	4ee\	4cc\	4ee\	.
4r	.	.	4c/	.	4a/	.	.	.	.	.	.	.	.	.	.	.	.	4aa\	4ccc\	4aa\	4ccc\	.
2r	.	.	4B/	.	4g/	.	.	.	.	.	.	.	.	.	.	.	.	4gg\	4bb\	4gg\	4bb\	.
.	.	.	4A/	.	4f/	.	.	.	.	.	.	.	.	.	.	.	.	4ff\	4aa\	4ff\	4aa\	.
!	!	!	!	!	!	!	!	!	!	!	!	!	!	!	!	!	!	!	!	!LO:LB:g=original	!	!
=48	=48	=48	=48	=48	=48	=48	=48-	=48	=48-	=48	=48-	=48	=48	=48	=48	=48	=48	=48	=48	=48	=48	=48
!!mixed beam:problem
!	!	!	!	!	!	!	!	!	!	!	!	!	!	!	!	!	!	!LO:TX:t=P:problem=mixed beam	!	!LO:TX:t=P:problem=mixed beam	!	!
2r	.	.	4G/	.	4e/	.	.	.	.	.	.	.	2r	2r	2r	2r	2r	8ee\L	8gg\L	8ee\L	8gg\L	.
.	.	.	.	.	.	.	.	.	.	.	.	.	.	.	.	.	.	8ff\	8aa\	8ff\	8aa\	.
.	.	.	4d/	.	4f/	.	.	.	.	.	.	.	.	.	.	.	.	8dd\	8ff\	8dd\	8ff\	.
.	.	.	.	.	.	.	.	.	.	.	.	.	.	.	.	.	.	8f/J	8dd\J	8f/J	8dd\J	.
4G\	6 4	.	4r	.	4r	.	.	.	.	.	.	.	4GG/	4dd\	4ff\	4dd\	4ff\	8f/L	8a\L	8f/L	8a\L	.
.	.	.	.	.	.	.	.	.	.	.	.	.	.	.	.	.	.	8e/	8cc\	8e/	8cc\	.
4GG/	7 5	.	4B/	.	4d/	.	.	.	.	.	.	.	4GG/	4g/	4dd\	4g/	4dd\	8d/	8b\	8d/	8b\	.
.	.	.	.	.	.	.	.	.	.	.	.	.	.	.	.	.	.	8f/J	8dd\J	8f/J	8dd\J	.
!	!	!	!	!	!	!	!	!	!	!	!	!	!	!	!	!	!	!	!	!	!LO:LB:g=original	!
=49	=49	=49	=49	=49	=49	=49	=49-	=49	=49-	=49	=49-	=49	=49	=49	=49	=49	=49	=49	=49	=49	=49	=49
!	!	!	!LO:TX:b:t=|:problem	!	!	!	!	!	!	!	!	!	!	!	!	!	!	!	!	!	!	!
4C/	.	.	4c/	.	4e/	.	.	.	.	.	.	.	4C/	4cc\	4ee\	4cc\	4ee\	4e/	4cc\	4e/	4cc\	.
!	!	!	!LO:TX:b:t=|:problem	!	!	!	!	!	!	!	!	!	!	!	!	!	!	!	!	!	!	!
4r	.	.	4c/	.	4a/	.	.	.	.	.	.	.	4r	4r	4r	4r	4r	4aa\	4ccc\	4aa\	4ccc\	.
!	!	!	!LO:TX:b:t=|:problem	!	!	!	!	!	!	!	!	!	!	!	!	!	!	!	!	!	!	!
2r	.	.	4B/	.	4g/	.	.	.	.	.	.	.	2r	2r	2r	2r	2r	4gg\	4bb\	4gg\	4bb\	.
!	!	!	!LO:TX:b:t=|:problem	!	!	!	!	!	!	!	!	!	!	!	!	!	!	!	!	!	!	!
.	.	.	4A/	.	4f/	.	.	.	.	.	.	.	.	.	.	.	.	4ff\	4aa\	4ff\	4aa\	.
=50	=50	=50	=50	=50	=50	=50	=50-	=50	=50	=50	=50-	=50	=50	=50	=50	=50	=50	=50	=50	=50	=50	=50
2r	.	.	4G/	.	4e/	.	1r	.	1r	.	1r	.	4r	4r	4r	4r	4r	8ee\L	8gg\L	8ee\L	8gg\L	.
.	.	.	.	.	.	.	.	.	.	.	.	.	.	.	.	.	.	8ee\	8gg#X\	8ee\	8gg#X\	.
.	.	.	4d/	.	4f/	.	.	.	.	.	.	.	4GG/	4dd\	4ff\	4dd\	4ff\	8ff\	8aa\	8ff\	8aa\	.
.	.	.	.	.	.	.	.	.	.	.	.	.	.	.	.	.	.	8dd\J	8ff\J	8dd\J	8ff\J	.
4G\	6 4	.	4e/	.	4g/	.	.	.	.	.	.	.	4C/	4cc\	4ee\	4cc\	4ee\	4cc\	4ee\	4cc\	4ee\	.
4GG/	7 5	.	4d/	.	4b/	.	.	.	.	.	.	.	4GG/	4g/	4dd\	4g/	4dd\	4b\	4dd\	4b\	4dd\	.
!	!	!	!	!	!	!	!	!	!	!	!	!	!	!	!	!	!	!LO:LB:g=original	!	!	!	!
=51	=51	=51	=51	=51	=51	=51	=51	=51	=51	=51	=51	=51	=51	=51	=51	=51	=51	=51	=51	=51	=51	=51
!!mixed beam:problem
!LO:TX:t=P:problem=mixed beam	!	!	!	!	!	!	!	!	!	!	!	!	!	!	!	!	!	!	!	!	!	!
!LO:TX:b:t=Tutti	!	!	!LO:TX:b:t=|:problem	!LO:DY:b:t=for.	!	!	!	!	!	!	!	!	!	!	!	!	!	!	!	!	!	!
8C/L	.	.	8e/L	f	8G/L 8e/ 8cc/	.	4C/	Ky-	8cc\	Ky-	8cc\	Ky-	4C/	4e/	4cc\	4e/	4cc\	8cc\L	8cc\L	8cc\L	8cc\L	.
!	!	!	!LO:TX:b:t=|:problem	!	!	!LO:DY:b:t=for	!	!	!	!	!	!	!	!	!	!	!	!	!	!	!	!
8c\	5 3	.	8c/	.	8cc/	f	.	.	8cc\	-ri-	8cc\	-ri-	.	.	.	.	.	8cc\	8cc\	8cc\	8cc\	.
!	!	!	!LO:TX:b:t=|:problem	!	!	!	!	!	!	!	!	!	!	!	!	!	!	!	!	!	!	!
8c\	.	.	8B/	.	8dd/	.	4c\	-ri-	8b\	-e	8dd\	-e	4r	4r	4r	4r	4r	8b\	8dd\	8b\	8dd\	.
!	!	!	!LO:TX:b:t=|:problem	!	!	!	!	!	!	!	!	!	!	!	!	!	!	!	!	!	!	!
8c\J	.	.	8c/J	.	8ee/J	.	.	.	8cc\	e-	8ee\	e-	.	.	.	.	.	8cc\J	8ee\J	8cc\J	8ee\J	.
*tremolo	*	*	*	*	*	*	*	*	*	*	*	*	*	*	*	*	*	*	*	*	*	*
!	!	!	!LO:TX:b:t=|:problem	!	!	!	!	!	!	!	!	!	!	!	!	!	!	!	!	!	!	!
8c\L	.	.	8d/L	.	8ff\L	.	4c\	-e	8dd\L	-lei-	8ff\L	-lei-	2r	2r	2r	2r	2r	8dd\L	8ff\L	8dd\L	8ff\L	.
!	!	!	!LO:TX:b:t=|:problem	!	!	!	!	!	!	!	!	!	!	!	!	!	!	!	!	!	!	!
8c\	.	.	8e/	.	8gg\	.	.	.	8ee\J	.	8gg\J	.	.	.	.	.	.	8ee\	8gg\	8ee\	8gg\	.
!	!	!	!LO:TX:b:t=|:problem	!	!	!	!	!	!	!	!	!	!	!	!	!	!	!	!	!	!	!
8c\	.	.	8f/	.	8aa\	.	4c\	e-	8ff\	-son	8aa\	-son	.	.	.	.	.	8ff\	8aa\	8ff\	8aa\	.
!	!	!	!LO:TX:b:t=|:problem	!	!	!	!	!	!	!	!	!	!	!	!	!	!	!	!	!	!	!
8c\J	.	.	8e/J	.	8gg\J	.	.	.	8ee\	e-	8gg\	e-	.	.	.	.	.	8ee\J	8gg\J	8ee\J	8gg\J	.
*Xtremolo	*	*	*	*	*	*	*	*	*	*	*	*	*	*	*	*	*	*	*	*	*	*
!LO:LB:g=original	!	!	!	!	!	!	!	!	!	!	!LO:LB:g=original	!	!LO:LB:g=original	!	!	!	!	!	!	!	!	!
=52	=52	=52	=52	=52	=52	=52	=52	=52	=52	=52	=52	=52	=52	=52	=52	=52	=52	=52	=52	=52	=52	=52
8B\L	6: 5:	.	4d/	.	4ff\	.	8B\L	-lei-	2dd\	-lei-	2ff\	-lei-	4GG/	4g/	4dd\	4g/	4dd\	4dd\	4ff\	4dd\	4ff\	.
8d\	.	.	.	.	.	.	8d\	.	.	.	.	.	.	.	.	.	.	.	.	.	.	.
8B\	.	.	16G/ 16fLL/	.	16dd\ 16bbLL\	.	8B\	.	.	.	.	.	4GG/	2g/	2dd\	2g/	2dd\	4b\	4dd\	4b\	4dd\	.
.	.	.	16G/ 16f/	.	16dd\ 16bb\	.	.	.	.	.	.	.	.	.	.	.	.	.	.	.	.	.
8G\J	.	.	16G/ 16f/	.	16dd\ 16bb\	.	8G\J	.	.	.	.	.	.	.	.	.	.	.	.	.	.	.
.	.	.	16G/ 16f/	.	16dd\ 16bb\	.	.	.	.	.	.	.	.	.	.	.	.	.	.	.	.	.
8F\L	.	.	16G/ 16f/	.	16dd\ 16bb\	.	8F\L	.	2b\	-son	2dd\	-son	4GG/	.	.	.	.	4cc\	4ee\	4cc\	4ee\	.
.	.	.	16G/ 16f/	.	16dd\ 16bb\	.	.	.	.	.	.	.	.	.	.	.	.	.	.	.	.	.
8D\	.	.	16G/ 16f/	.	16dd\ 16bb\	.	8D\	.	.	.	.	.	.	.	.	.	.	.	.	.	.	.
.	.	.	16G/ 16fJJ/	.	16dd\ 16bbJJ\	.	.	.	.	.	.	.	.	.	.	.	.	.	.	.	.	.
8BB\	.	.	16G/ 16fLL/	.	16dd\ 16bbLL\	.	8BB\	.	.	.	.	.	4GG/	4g/	4dd\	4g/	4dd\	4dd\	4ff\	4dd\	4ff\	.
.	.	.	16G/ 16f/	.	16dd\ 16bb\	.	.	.	.	.	.	.	.	.	.	.	.	.	.	.	.	.
8D\J	.	.	16G/ 16f/	.	16dd\ 16bb\	.	8D\J	.	.	.	.	.	.	.	.	.	.	.	.	.	.	.
.	.	.	16G/ 16fJJ/	.	16dd\ 16bbJJ\	.	.	.	.	.	.	.	.	.	.	.	.	.	.	.	.	.
!	!	!	!	!	!LO:LB:g=original	!	!	!	!LO:LB:g=original	!	!	!	!	!LO:LB:g=original	!	!	!	!	!	!	!	!
=53	=53	=53	=53	=53	=53	=53	=53	=53	=53	=53	=53	=53	=53	=53	=53	=53	=53	=53	=53	=53	=53	=53
!!mixed beam:problem
!LO:TX:t=P:problem=mixed beam	!	!	!	!	!	!LO:DY:b:t=for	!	!	!	!	!	!	!	!	!	!	!	!	!	!	!	!
8C/L	6 5	.	8A/L 8f/	.	8ee\L 8ccc\	f	4C/	-son	8cc\	Ky-	8cc\	Ky-	4C/	4e/	4cc\	4e/	4cc\	8cc\L	8ee\L	8cc\L	8ee\L	.
8c\	.	.	8c/	.	8cc\	.	.	.	8cc\	-ri-	8cc\	-ri-	.	.	.	.	.	8cc\	8cc\	8cc\	8cc\	.
8c\	.	.	8B/	.	8dd\	.	8c\L	Ky-	8b\	-e	8dd\	-e	4r	4r	4r	4r	4r	8b\	8dd\	8b\	8dd\	.
8c\J	.	.	8c/J	.	8ee\J	.	8c\J	-ri-	8cc\	e	8ee\	e-	.	.	.	.	.	8cc\J	8ee\J	8cc\J	8ee\J	.
*tremolo	*	*	*	*	*	*	*	*	*	*	*	*	*	*	*	*	*	*	*	*	*	*
8c\L	.	.	8d/L	.	8ff\L	.	4c\	-e	8dd\L	e-	8dd\L	-lei-	2r	2r	2r	2r	2r	8dd\L	8ff\L	8dd\L	8ff\L	.
8c\	.	.	8e/	.	8gg\	.	.	.	8ee\J	.	8gg\J	.	.	.	.	.	.	8ee\	8gg\	8ee\	8gg\	.
8c\	.	.	8f/	.	8aa\	.	4c\	e-	8ff\	-son	8aa\	-son	.	.	.	.	.	8ff\	8aa\	8ff\	8aa\	.
8c\J	.	.	8e/J	.	8gg\J	.	.	.	8ee\	e-	8gg\	e-	.	.	.	.	.	8ee\J	8gg\J	8ee\J	8gg\J	.
*Xtremolo	*	*	*	*	*	*	*	*	*	*	*	*	*	*	*	*	*	*	*	*	*	*
!	!	!	!LO:LB:g=original	!	!	!	!	!	!	!	!	!	!	!	!	!	!	!	!	!LO:LB:g=original	!	!
=54	=54	=54	=54	=54	=54	=54	=54	=54	=54	=54	=54	=54	=54	=54	=54	=54	=54	=54	=54	=54	=54	=54
8B\L	6 5	.	4d/	.	4ff\	.	8B\L	-lei-	2dd\	-lei-	2ff\	-lei-	4GG/	4g/	4dd\	4g/	4dd\	4dd\	4ff\	4dd\	4ff\	.
8d\	.	.	.	.	.	.	8d\	.	.	.	.	.	.	.	.	.	.	.	.	.	.	.
8B\	.	.	16G/ 16fLL/	.	16dd\ 16bb\LL	.	8B\	.	.	.	.	.	4GG/	2g/	2dd\	2g/	2dd\	4b\	4dd\	4b\	4dd\	.
.	.	.	16G/ 16f/	.	16dd\ 16bb\	.	.	.	.	.	.	.	.	.	.	.	.	.	.	.	.	.
8G\J	.	.	16G/ 16f/	.	16dd\ 16bb\	.	8G\J	.	.	.	.	.	.	.	.	.	.	.	.	.	.	.
.	.	.	16G/ 16f/	.	16dd\ 16bb\	.	.	.	.	.	.	.	.	.	.	.	.	.	.	.	.	.
8F\L	.	.	16G/ 16f/	.	16dd\ 16bb\	.	8G\L	.	2b\	-son	2dd\	-son	4GG/	.	.	.	.	4cc\	4ee\	4cc\	4ee\	.
.	.	.	16G/ 16f/	.	16dd\ 16bb\	.	.	.	.	.	.	.	.	.	.	.	.	.	.	.	.	.
8D\	.	.	16G/ 16f/	.	16dd\ 16bb\	.	8F\	.	.	.	.	.	.	.	.	.	.	.	.	.	.	.
.	.	.	16G/ 16fJJ/	.	16dd\ 16bbJJ\	.	.	.	.	.	.	.	.	.	.	.	.	.	.	.	.	.
8BB\	.	.	16G/ 16fLL/	.	16dd\ 16bb\LL\	.	8D\	.	.	.	.	.	4GG/	4g/	4dd\	4g/	4dd\	4dd\	4ff\	4dd\	4ff\	.
.	.	.	16G/ 16f/	.	16dd\ 16bb\	.	.	.	.	.	.	.	.	.	.	.	.	.	.	.	.	.
8D\J	.	.	16G/ 16f/	.	16dd\ 16bb\	.	8BB\J	.	.	.	.	.	.	.	.	.	.	.	.	.	.	.
.	.	.	16G/ 16fJJ/	.	16dd\ 16bbJJ\	.	.	.	.	.	.	.	.	.	.	.	.	.	.	.	.	.
!	!	!	!	!	!	!	!LO:LB:g=original	!	!	!	!	!	!	!	!	!LO:LB:g=original	!	!	!LO:LB:g=original	!	!	!
=55	=55	=55	=55	=55	=55	=55	=55	=55	=55	=55	=55	=55	=55	=55	=55	=55	=55	=55	=55	=55	=55	=55
*tremolo	*	*	*	*	*	*	*	*	*	*	*	*	*	*	*	*	*	*	*	*	*	*
8C\L	.	.	16e/LL	.	16ee\ 16cccLL\	.	2C\	-son	2cc\	Ky-	2ee\	Ky-	4C/	4cc\	4ee\	2cc\	2ee\	2ee\	2gg\	2ee\	2gg\	.
.	.	.	16e/	.	16ee\ 16ccc\	.	.	.	.	.	.	.	.	.	.	.	.	.	.	.	.	.
8C\	.	.	16e/	.	16ee\ 16ccc\	.	.	.	.	.	.	.	.	.	.	.	.	.	.	.	.	.
.	.	.	16e/	.	16ee\ 16ccc\	.	.	.	.	.	.	.	.	.	.	.	.	.	.	.	.	.
8C\	.	.	16e/	.	16ee\ 16ccc\	.	.	.	.	.	.	.	4r	4r	4r	.	.	.	.	.	.	.
.	.	.	16e/	.	16ee\ 16ccc\	.	.	.	.	.	.	.	.	.	.	.	.	.	.	.	.	.
8C\J	.	.	16e/	.	16ee\ 16ccc\	.	.	.	.	.	.	.	.	.	.	.	.	.	.	.	.	.
.	.	.	16e/JJ	.	16ee\ 16cccJJ\	.	.	.	.	.	.	.	.	.	.	.	.	.	.	.	.	.
8E\L	6 -5	.	16g/LL	.	16cc\ 16bb-XLL\	.	2E\	e-	2cc\	-ri-	2gg\	-ri-	2r	2r	2r	2cc\	2ee\	2gg\	2bb-\	2gg\	2bb-X\	.
.	.	.	16g/	.	16cc\ 16bb-X\	.	.	.	.	.	.	.	.	.	.	.	.	.	.	.	.	.
8E\	.	.	16g/	.	16cc\ 16bb-X\	.	.	.	.	.	.	.	.	.	.	.	.	.	.	.	.	.
.	.	.	16g/	.	16cc\ 16bb-X\	.	.	.	.	.	.	.	.	.	.	.	.	.	.	.	.	.
8E\	.	.	16g/	.	16cc\ 16bb-X\	.	.	.	.	.	.	.	.	.	.	.	.	.	.	.	.	.
.	.	.	16g/	.	16cc\ 16bb-X\	.	.	.	.	.	.	.	.	.	.	.	.	.	.	.	.	.
8E\J	.	.	16g/	.	16cc\ 16bb-X\	.	.	.	.	.	.	.	.	.	.	.	.	.	.	.	.	.
.	.	.	16g/JJ	.	16cc\ 16bb-XJJ\	.	.	.	.	.	.	.	.	.	.	.	.	.	.	.	.	.
=56	=56	=56	=56	=56	=56	=56	=56	=56	=56	=56	=56	=56	=56	=56	=56	=56	=56	=56	=56	=56	=56	=56
8F\L	X 3	.	16f/LL	.	16aa\LL	.	2F\	-lei-	2a\	-e	2ff\	-e	1r	1r	1r	2cc\	2ff\	2ff\	2aa\	2ff\	2aa\	.
.	.	.	16f/	.	16aa\	.	.	.	.	.	.	.	.	.	.	.	.	.	.	.	.	.
8F\	.	.	16f/	.	16aa\	.	.	.	.	.	.	.	.	.	.	.	.	.	.	.	.	.
.	.	.	16f/	.	16aa\	.	.	.	.	.	.	.	.	.	.	.	.	.	.	.	.	.
8F\	.	.	16f/	.	16aa\	.	.	.	.	.	.	.	.	.	.	.	.	.	.	.	.	.
.	.	.	16f/	.	16aa\	.	.	.	.	.	.	.	.	.	.	.	.	.	.	.	.	.
8F\J	.	.	16f/	.	16aa\	.	.	.	.	.	.	.	.	.	.	.	.	.	.	.	.	.
.	.	.	16f/JJ	.	16aa\JJ	.	.	.	.	.	.	.	.	.	.	.	.	.	.	.	.	.
8F\L	X 6	.	16f/ 16aLL/	.	16ddd\LL	.	2F\	.	2a\	e-	2aa\	e-	.	.	.	2cc\	2ff\	2dd\	2ff\	2dd\	2ff\	.
.	.	.	16f/ 16a/	.	16ddd\	.	.	.	.	.	.	.	.	.	.	.	.	.	.	.	.	.
8F\	.	.	16f/ 16a/	.	16ddd\	.	.	.	.	.	.	.	.	.	.	.	.	.	.	.	.	.
.	.	.	16f/ 16a/	.	16ddd\	.	.	.	.	.	.	.	.	.	.	.	.	.	.	.	.	.
8F\	.	.	16f/ 16a/	.	16ddd\	.	.	.	.	.	.	.	.	.	.	.	.	.	.	.	.	.
.	.	.	16f/ 16a/	.	16ddd\	.	.	.	.	.	.	.	.	.	.	.	.	.	.	.	.	.
8F\J	.	.	16f/ 16a/	.	16ddd\	.	.	.	.	.	.	.	.	.	.	.	.	.	.	.	.	.
.	.	.	16f/ 16aJJ/	.	16ddd\JJ	.	.	.	.	.	.	.	.	.	.	.	.	.	.	.	.	.
!	!	!	!	!	!	!	!	!	!	!	!LO:LB:g=original	!	!	!	!	!	!	!	!	!	!LO:LB:g=original	!
=57	=57	=57	=57	=57	=57	=57	=57	=57	=57	=57	=57	=57	=57	=57	=57	=57	=57	=57	=57	=57	=57	=57
8G\L	6: 4:	.	16G/ 16eLL/	.	16ee\LL	.	1G	.	1cc	-lei-	1gg	-lei-	4E\	4cc\	4ee\	2cc\	2ee\	2cc\	2ee\	2cc\	2ee\	.
.	.	.	16G/ 16e/	.	16ccc\	.	.	.	.	.	.	.	.	.	.	.	.	.	.	.	.	.
8G\	.	.	16G/ 16e/	.	16ee\	.	.	.	.	.	.	.	.	.	.	.	.	.	.	.	.	.
.	.	.	16G/ 16e/	.	16ccc\	.	.	.	.	.	.	.	.	.	.	.	.	.	.	.	.	.
8G\	.	.	16G/ 16e/	.	16ee\	.	.	.	.	.	.	.	4r	4r	4r	.	.	.	.	.	.	.
.	.	.	16G/ 16e/	.	16ccc\	.	.	.	.	.	.	.	.	.	.	.	.	.	.	.	.	.
8G\J	.	.	16G/ 16e/	.	16ee\	.	.	.	.	.	.	.	.	.	.	.	.	.	.	.	.	.
.	.	.	16G/ 16eJJ/	.	16ccc\JJ	.	.	.	.	.	.	.	.	.	.	.	.	.	.	.	.	.
8G\L	.	.	16G/ 16eLL/	.	16ee\LL	.	.	.	.	.	.	.	2r	2r	2r	4cc\	4ee\	4cc\	4ee\	4cc\	4ee\	.
.	.	.	16G/ 16e/	.	16ccc\	.	.	.	.	.	.	.	.	.	.	.	.	.	.	.	.	.
8G\	.	.	16G/ 16e/	.	16ee\	.	.	.	.	.	.	.	.	.	.	.	.	.	.	.	.	.
.	.	.	16G/ 16e/	.	16ccc\	.	.	.	.	.	.	.	.	.	.	.	.	.	.	.	.	.
8G\	.	.	16G/ 16e/	.	16ee\	.	.	.	.	.	.	.	.	.	.	4cc\	4ee\	4cc\	4ee\	4cc\	4ee\	.
.	.	.	16G/ 16e/	.	16ccc\	.	.	.	.	.	.	.	.	.	.	.	.	.	.	.	.	.
8G\J	.	.	16G/ 16e/	.	16ee\	.	.	.	.	.	.	.	.	.	.	.	.	.	.	.	.	.
.	.	.	16G/ 16eJJ/	.	16ccc\JJ	.	.	.	.	.	.	.	.	.	.	.	.	.	.	.	.	.
!	!	!	!	!	!	!	!	!	!	!	!	!	!	!	!LO:LB:g=original	!	!	!	!	!	!	!
=58	=58	=58	=58	=58	=58	=58	=58	=58	=58	=58	=58	=58	=58	=58	=58	=58	=58	=58	=58	=58	=58	=58
8GG/L	7: 5:	.	16G/ 16fLL/	.	16dd\LL	.	1GG	.	1b	-son	1ff	.	2GG/	2g/	2dd\	2g/	2dd\	2b\	2dd\	2b\	2dd\	.
.	.	.	16G/ 16f/	.	16ccc\	.	.	.	.	.	.	.	.	.	.	.	.	.	.	.	.	.
8GG/	.	.	16G/ 16f/	.	16dd\	.	.	.	.	.	.	.	.	.	.	.	.	.	.	.	.	.
.	.	.	16G/ 16f/	.	16ccc\	.	.	.	.	.	.	.	.	.	.	.	.	.	.	.	.	.
8GG/	.	.	16G/ 16f/	.	16dd\	.	.	.	.	.	.	.	.	.	.	.	.	.	.	.	.	.
.	.	.	16G/ 16f/	.	16ccc\	.	.	.	.	.	.	.	.	.	.	.	.	.	.	.	.	.
8GG/J	.	.	16G/ 16f/	.	16dd\	.	.	.	.	.	.	.	.	.	.	.	.	.	.	.	.	.
.	.	.	16G/ 16fJJ/	.	16ccc\JJ	.	.	.	.	.	.	.	.	.	.	.	.	.	.	.	.	.
8GG/L	.	.	16G/ 16fLL/	.	16dd\LL	.	.	.	.	.	.	.	2r	2r	2r	4r	4ff\	4dd\	4ff\	4dd\	4ff\	.
.	.	.	16G/ 16f/	.	16bb\	.	.	.	.	.	.	.	.	.	.	.	.	.	.	.	.	.
8GG/	.	.	16G/ 16f/	.	16dd\	.	.	.	.	.	.	.	.	.	.	.	.	.	.	.	.	.
.	.	.	16G/ 16f/	.	16bb\	.	.	.	.	.	.	.	.	.	.	.	.	.	.	.	.	.
8GG/	.	.	16G/ 16f/	.	16dd\	.	.	.	.	.	.	.	.	.	.	8dd\L	4ff\	4dd\	4ff\	4dd\	4ff\	.
.	.	.	16G/ 16f/	.	16bb\	.	.	.	.	.	.	.	.	.	.	.	.	.	.	.	.	.
8GG/J	.	.	16G/ 16f/	.	16dd\	.	.	.	.	.	.	.	.	.	.	8dd\J	.	.	.	.	.	.
.	.	.	16G/ 16fJJ/	.	16bb\JJ	.	.	.	.	.	.	.	.	.	.	.	.	.	.	.	.	.
*Xtremolo	*	*	*	*	*	*	*	*	*	*	*	*	*	*	*	*	*	*	*	*	*	*
!LO:LB:g=original	!	!	!	!	!	!	!	!	!	!	!	!	!	!	!	!	!LO:LB:g=original	!LO:LB:g=original	!	!	!	!
=59	=59	=59	=59	=59	=59	=59	=59	=59	=59	=59	=59	=59	=59	=59	=59	=59	=59	=59	=59	=59	=59	=59
!	!	!	!LO:TX:t=P:problem=t. 59-66 zapisane jako repetycja	!	!	!	!	!	!	!	!	!	!	!	!	!	!	!	!	!	!	!
!!mixed beam:problem
!LO:TX:t=P:problem=mixed beam	!	!	!	!	!	!	!	!	!	!	!	!	!	!	!	!	!	!	!	!	!	!
8C/L	5 3	.	8e/Lyy	fy	8ee\L 8ccc\	.	4C/	-son	8cc\	Ky-	8cc\	-son	4C/	4c/	4cc\	4e/	4cc\	8cc\L	8ee\L	8cc\L	8ee\L	.
8c\	.	.	8c/yy	.	8cc\	.	.	.	8cc\	-ri-	8cc\	Ky-	.	.	.	.	.	8cc\	8cc\	8cc\	8cc\	.
8c\	.	.	8B/yy	.	8dd\	.	4c\	Ky-	8b\	-e	8dd\	-ri-	4r	4r	4r	4r	4r	8b\	8dd\	8b\	8dd\	.
8c\J	.	.	8c/Jyy	.	8ee\J	.	.	.	8cc\	e-	8ee\	-e	.	.	.	.	.	8cc\J	8ee\J	8cc\J	8ee\J	.
!	!	!	!	!	!	!	!	!	!LO:LB:g=original	!	!	!	!	!	!	!	!	!	!	!	!	!
8c\L	.	.	8d/Lyy	.	8ff\L	.	4c\	-ri-	8dd\L	-lei-	8ee\	e-	2r	2r	2r	2r	2r	8dd\L	8ff\L	8dd\L	8ff\L	.
!	!	!	!	!	!	!	!	!	!	!	!LO:N:vis=8	!	!	!	!	!	!	!	!	!	!	!
8c\	.	.	8e/yy	.	8gg\	.	.	.	8ee\J	.	16ff\LL	-lei-	.	.	.	.	.	8ee\	8gg\	8ee\	8gg\	.
!	!	!	!	!	!	!	!	!	!	!	!LO:N:vis=8	!	!	!	!	!	!	!	!	!	!	!
.	.	.	.	.	.	.	.	.	.	.	16gg\JJ	.	.	.	.	.	.	.	.	.	.	.
8c\	.	.	8f/yy	.	8aa\	.	4c\	-e	8ff\	-son	8aa\	-son	.	.	.	.	.	8ff\	8aa\	8ff\	8aa\	.
8c\J	.	.	8e/Jyy	.	8gg\J	.	.	.	8ee\	e-	8gg\	e-	.	.	.	.	.	8ee\J	8gg\J	8ee\J	8gg\J	.
!	!	!	!	!	!LO:LB:g=original	!	!	!	!	!	!	!	!	!	!	!	!	!	!	!	!	!
=60	=60	=60	=60	=60	=60	=60	=60	=60	=60	=60	=60	=60	=60	=60	=60	=60	=60	=60	=60	=60	=60	=60
8B\L	6: 5:	.	4d/yy	.	4ff\	.	8B\L	e-	2dd\	-lei-	2ff\	-lei-	4GG/	4g/	4dd\	4g/	4dd\	4dd\	4ff\	4dd\	4ff\	.
8d\	.	.	.	.	.	.	8d\	.	.	.	.	.	.	.	.	.	.	.	.	.	.	.
8B\	.	.	16G/yy 16fLL/yy	.	16dd\ 16bbLL\	.	8B\	.	.	.	.	.	4GG/	2g/	2dd\	2g/	2dd\	4b\	4dd\	4b\	4dd\	.
.	.	.	16G/yy 16f/yy	.	16dd\ 16bb\	.	.	.	.	.	.	.	.	.	.	.	.	.	.	.	.	.
8G\J	.	.	16G/yy 16f/yy	.	16dd\ 16bb\	.	8G\J	.	.	.	.	.	.	.	.	.	.	.	.	.	.	.
.	.	.	16G/yy 16f/yy	.	16dd\ 16bb\	.	.	.	.	.	.	.	.	.	.	.	.	.	.	.	.	.
8F\L	.	.	16G/yy 16f/yy	.	16dd\ 16bb\	.	8F\L	-lei-	2b\	-son	2dd\	-son.	4GG/	.	.	.	.	4cc\	4ee\	4cc\	4ee\	.
.	.	.	16G/yy 16f/yy	.	16dd\ 16bb\	.	.	.	.	.	.	.	.	.	.	.	.	.	.	.	.	.
8D\	.	.	16G/yy 16f/yy	.	16dd\ 16bb\	.	8D\	.	.	.	.	.	.	.	.	.	.	.	.	.	.	.
.	.	.	16G/yy 16fJJ/yy	.	16dd\ 16bbJJ\	.	.	.	.	.	.	.	.	.	.	.	.	.	.	.	.	.
8BB\	.	.	16G/yy 16fLL/yy	.	16dd\ 16bbLL\	.	8BB\	.	.	.	.	.	4GG/	4g/	4dd\	4g/	4dd\	4dd\	4ff\	4dd\	4ff\	.
.	.	.	16G/yy 16f/yy	.	16dd\ 16bb\	.	.	.	.	.	.	.	.	.	.	.	.	.	.	.	.	.
8D\J	.	.	16G/yy 16f/yy	.	16dd\ 16bb\	.	8D\J	.	.	.	.	.	.	.	.	.	.	.	.	.	.	.
.	.	.	16G/yy 16fJJ/yy	.	16dd\ 16bbJJ\	.	.	.	.	.	.	.	.	.	.	.	.	.	.	.	.	.
=61	=61	=61	=61	=61	=61	=61	=61	=61	=61	=61	=61	=61	=61	=61	=61	=61	=61	=61	=61	=61	=61	=61
!!mixed beam:problem
!LO:TX:t=P:problem=mixed beam	!	!	!	!	!	!	!	!	!	!	!	!	!	!	!	!	!	!	!	!	!	!
8C/L	5 3	.	8A/Lyy 8f/yy	.	8ee\L 8ccc\	.	4C/	-son	8cc\	Ky-	8cc\	Ky-	4C/	4e/	4cc\	4e/	4cc\	8cc\L	8ee\L	8cc\L	8ee\L	.
8c\	.	.	8c/yy	.	8cc\	.	.	.	8cc\	-ri-	8cc\	-ri-	.	.	.	.	.	8cc\	8cc\	8cc\	8cc\	.
8c\	.	.	8B/yy	.	8dd\	.	8c'>\L	Ky-	8b\	-e	8dd\	-e	4r	4r	4r	4r	4r	8b\	8dd\	8b\	8dd\	.
8c\J	.	.	8c/Jyy	.	8ee\J	.	8c'>\J	-ri-	8cc\	e-	8ee\	e-	.	.	.	.	.	8cc\J	8ee\J	8cc\J	8ee\J	.
!	!	!	!	!	!	!	!	!	!	!	!LO:LB:g=original	!	!	!	!	!	!	!	!	!LO:LB:g=original	!	!
*tremolo	*	*	*	*	*	*	*	*	*	*	*	*	*	*	*	*	*	*	*	*	*	*
8c\L	.	.	8d/Lyy	.	8ff\L	.	4c\	-e	8dd\L	-lei-	8ff\L	-lei-	2r	2r	2r	2r	2r	8dd\L	8ff\L	8dd\L	8ff\L	.
8c\	.	.	8e/yy	.	8gg\	.	.	.	8ee\J	.	8gg\J	.	.	.	.	.	.	8ee\	8gg\	8ee\	8gg\	.
8c\	.	.	8f/yy	.	8aa\	.	4c\	e-	8ff\	-son	8aa\	-son	.	.	.	.	.	8ff\	8aa\	8ff\	8aa\	.
8c\J	.	.	8e/Jyy	.	8gg\J	.	.	.	8ee\	e-	8gg\	e-	.	.	.	.	.	8ee\J	8gg\J	8ee\J	8gg\J	.
*Xtremolo	*	*	*	*	*	*	*	*	*	*	*	*	*	*	*	*	*	*	*	*	*	*
!	!	!	!	!	!	!	!LO:LB:g=original	!	!	!	!	!	!LO:LB:g=original	!	!	!	!	!	!	!	!	!
=62	=62	=62	=62	=62	=62	=62	=62	=62	=62	=62	=62	=62	=62	=62	=62	=62	=62	=62	=62	=62	=62	=62
8B\L	6 5	.	4d/yy	.	4ff\	.	8B\L	-lei-	2dd\	-lei-	2ff\	-lei-	4GG/	4g/	4dd\	4g/	4dd\	4dd\	4ff\	4dd\	4ff\	.
(>8d\	.	.	.	.	.	.	8d\	.	.	.	.	.	.	.	.	.	.	.	.	.	.	.
8B\	.	.	16G/yy 16fLL/yy	.	16dd\ 16bbLL\	.	8B\	.	.	.	.	.	4GG/	2g/	2dd\	2g/	2dd\	4b\	4dd\	4b\	4dd\	.
.	.	.	16G/yy 16f/yy	.	16dd\ 16bb\	.	.	.	.	.	.	.	.	.	.	.	.	.	.	.	.	.
8G\J	.	.	16G/yy 16f/yy	.	16dd\ 16bb\	.	8G\J	.	.	.	.	.	.	.	.	.	.	.	.	.	.	.
.	.	.	16G/y 16f/yy	.	16dd\ 16bb\	.	.	.	.	.	.	.	.	.	.	.	.	.	.	.	.	.
8F\L)	.	.	16G/yy 16f/yy	.	16dd\ 16bb\	.	8G\L	.	2b\	-son	2dd\	-son.	4GG/	.	.	.	.	4cc\	4ee\	4cc\	4ee\	.
.	.	.	16G/yy 16f/yy	.	16dd\ 16bb\	.	.	.	.	.	.	.	.	.	.	.	.	.	.	.	.	.
8D\	.	.	16G/yy 16f/yy	.	16dd\ 16bb\	.	8F\	.	.	.	.	.	.	.	.	.	.	.	.	.	.	.
.	.	.	16G/yy 16fJJ/yy	.	16dd\ 16bbJJ\	.	.	.	.	.	.	.	.	.	.	.	.	.	.	.	.	.
8BB\	.	.	16G/yy 16fLL/yy	.	16dd\ 16bbLL\	.	8D\	.	.	.	.	.	4GG/	4g/	4dd\	4g/	4dd\	4dd\	4ff\	4dd\	4ff\	.
.	.	.	16G/y 16f/yy	.	16dd\ 16bb\	.	.	.	.	.	.	.	.	.	.	.	.	.	.	.	.	.
8D\J	.	.	16G/yy 16f/yy	.	16dd\ 16bb\	.	8BB\J	.	.	.	.	.	.	.	.	.	.	.	.	.	.	.
.	.	.	16G/yy 16fJJ/yy	.	16dd\ 16bbJJ\	.	.	.	.	.	.	.	.	.	.	.	.	.	.	.	.	.
!	!	!	!	!	!	!	!	!	!	!	!	!	!	!	!	!	!	!	!LO:LB:g=original	!	!	!
=63	=63	=63	=63	=63	=63	=63	=63	=63	=63	=63	=63	=63	=63	=63	=63	=63	=63	=63	=63	=63	=63	=63
*tremolo	*	*	*	*	*	*	*	*	*	*	*	*	*	*	*	*	*	*	*	*	*	*
8C\L	.	.	16e/LLyy	.	16ccc\LL	.	2C\	-son	2cc\	Ky-	2ee\	Ky-	4C/	4cc\	4ee\	2cc\	2ee\	2ee\	2gg\	2ee\	2gg\	.
.	.	.	16e/yy	.	16ccc\	.	.	.	.	.	.	.	.	.	.	.	.	.	.	.	.	.
8C\	.	.	16e/yy	.	16ccc\	.	.	.	.	.	.	.	.	.	.	.	.	.	.	.	.	.
.	.	.	16e/yy	.	16ccc\	.	.	.	.	.	.	.	.	.	.	.	.	.	.	.	.	.
8C\	.	.	16e/yy	.	16ccc\	.	.	.	.	.	.	.	4r	4r	4r	.	.	.	.	.	.	.
.	.	.	16e/yy	.	16ccc\	.	.	.	.	.	.	.	.	.	.	.	.	.	.	.	.	.
8C\J	.	.	16e/yy	.	16ccc\	.	.	.	.	.	.	.	.	.	.	.	.	.	.	.	.	.
.	.	.	16e/JJyy	.	16ccc\JJ	.	.	.	.	.	.	.	.	.	.	.	.	.	.	.	.	.
8E\L	6 -5	.	16g/LLyy	.	16ee\ 16bb-XLL\	.	2E\	e-	2cc\	-ri-	2gg\	-ri-	2r	2r	2r	2cc\	2ee\	2gg\	2bb-\	2gg\	2bb-X\	.
.	.	.	16g/yy	.	16ee\ 16bb-X\	.	.	.	.	.	.	.	.	.	.	.	.	.	.	.	.	.
8E\	.	.	16g/yy	.	16ee\ 16bb-X\	.	.	.	.	.	.	.	.	.	.	.	.	.	.	.	.	.
.	.	.	16g/yy	.	16ee\ 16bb-X\	.	.	.	.	.	.	.	.	.	.	.	.	.	.	.	.	.
8E\	.	.	16g/yy	.	16ee\ 16bb-X\	.	.	.	.	.	.	.	.	.	.	.	.	.	.	.	.	.
.	.	.	16g/yy	.	16ee\ 16bb-X\	.	.	.	.	.	.	.	.	.	.	.	.	.	.	.	.	.
8E\J	.	.	16g/yy	.	16ee\ 16bb-X\	.	.	.	.	.	.	.	.	.	.	.	.	.	.	.	.	.
.	.	.	16g/JJyy	.	16ee\ 16bb-XJJ\	.	.	.	.	.	.	.	.	.	.	.	.	.	.	.	.	.
!	!	!	!	!	!	!	!	!	!	!	!	!	!	!LO:LB:g=original	!	!	!	!	!	!	!	!
=64	=64	=64	=64	=64	=64	=64	=64	=64	=64	=64	=64	=64	=64	=64	=64	=64	=64	=64	=64	=64	=64	=64
!	!	!	!	!	!	!	!	!	!	!	!	!	!LO:TX:a:t=1.	!	!	!	!	!	!	!	!	!
8F\L	5 X	.	16f/LLyy	.	16aa\LL	.	2F\	-lei-	2a\	-e	2ff\	-e	1r	1r	1r	2cc\	2ff\	2ff\	2aa\	2ff\	2aa\	.
.	.	.	16f/yy	.	16aa\	.	.	.	.	.	.	.	.	.	.	.	.	.	.	.	.	.
8F\	.	.	16f/yy	.	16aa\	.	.	.	.	.	.	.	.	.	.	.	.	.	.	.	.	.
.	.	.	16f/yy	.	16aa\	.	.	.	.	.	.	.	.	.	.	.	.	.	.	.	.	.
8F\	.	.	16f/yy	.	16aa\	.	.	.	.	.	.	.	.	.	.	.	.	.	.	.	.	.
.	.	.	16f/yy	.	16aa\	.	.	.	.	.	.	.	.	.	.	.	.	.	.	.	.	.
8F\J	.	.	16f/yy	.	16aa\	.	.	.	.	.	.	.	.	.	.	.	.	.	.	.	.	.
.	.	.	16f/JJyy	.	16aa\JJ	.	.	.	.	.	.	.	.	.	.	.	.	.	.	.	.	.
8F\L	6 X	.	16f/yy 16aLL/yy	.	16ddd\LL	.	2F\	.	2a\	e-	2aa\	e-	.	.	.	2cc\	4ff\	2dd\	2ff\	2dd\	2ff\	.
.	.	.	16f/yy 16a/yy	.	16ddd\	.	.	.	.	.	.	.	.	.	.	.	.	.	.	.	.	.
8F\	.	.	16f/yy 16a/yy	.	16ddd\	.	.	.	.	.	.	.	.	.	.	.	.	.	.	.	.	.
.	.	.	16f/yy 16a/yy	.	16ddd\	.	.	.	.	.	.	.	.	.	.	.	.	.	.	.	.	.
8F\	.	.	16f/yy 16a/yy	.	16ddd\	.	.	.	.	.	.	.	.	.	.	.	4ff\	.	.	.	.	.
.	.	.	16f/yy 16a/yy	.	16ddd\	.	.	.	.	.	.	.	.	.	.	.	.	.	.	.	.	.
8F\J	.	.	16f/yy 16a/yy	.	16ddd\	.	.	.	.	.	.	.	.	.	.	.	.	.	.	.	.	.
.	.	.	16f/yy 16aJJ/yy	.	16ddd\JJ	.	.	.	.	.	.	.	.	.	.	.	.	.	.	.	.	.
!	!	!	!	!	!	!	!	!	!LO:LB:g=original	!	!	!	!	!	!	!LO:LB:g=original	!	!	!	!	!	!
=65	=65	=65	=65	=65	=65	=65	=65	=65	=65	=65	=65	=65	=65	=65	=65	=65	=65	=65	=65	=65	=65	=65
*	*	*	*	*	*	*	*	*	*	*	*	*	*	*2\right	*	*	*	*	*	*	*	*
8G\L	6: 4:	.	16G/yy 16eLL/yy	.	16ee\LL	.	1G	.	1cc	-lei-	1ee	-lei-	2C/	2cc\	2ee\	2cc\	2ee\	2cc\	2ee\	2cc\	2ee\	.
.	.	.	16G/yy 16e/yy	.	16ccc\	.	.	.	.	.	.	.	.	.	.	.	.	.	.	.	.	.
8G\	.	.	16G/yy 16e/yy	.	16ee\	.	.	.	.	.	.	.	.	.	.	.	.	.	.	.	.	.
.	.	.	16G/yy 16e/yy	.	16ccc\	.	.	.	.	.	.	.	.	.	.	.	.	.	.	.	.	.
8G\	.	.	16G/yy 16e/yy	.	16ee\	.	.	.	.	.	.	.	.	.	.	.	.	.	.	.	.	.
.	.	.	16G/yy 16e/yy	.	16ccc\	.	.	.	.	.	.	.	.	.	.	.	.	.	.	.	.	.
8G\J	.	.	16G/yy 16e/yy	.	16ee\	.	.	.	.	.	.	.	.	.	.	.	.	.	.	.	.	.
.	.	.	16G/yy 16eJJ/yy	.	16ccc\JJ	.	.	.	.	.	.	.	.	.	.	.	.	.	.	.	.	.
8G\L	.	.	16G/yy 16eLL/yy	.	16ee\LL	.	.	.	.	.	.	.	4C/	4cc\	4ee\	2cc\	4ee\	4cc\	4ee\	4cc\	4ee\	.
.	.	.	16G/yy 16e/yy	.	16ccc\	.	.	.	.	.	.	.	.	.	.	.	.	.	.	.	.	.
8G\	.	.	16G/yy 16e/yy	.	16ee\	.	.	.	.	.	.	.	.	.	.	.	.	.	.	.	.	.
.	.	.	16G/yy 16e/yy	.	16ccc\	.	.	.	.	.	.	.	.	.	.	.	.	.	.	.	.	.
8G\	.	.	16G/yy 16e/yy	.	16ee\	.	.	.	.	.	.	.	4C/	4cc\	4ee\	.	4ee\	4cc\	4ee\	4cc\	4ee\	.
.	.	.	16G/yy 16e/yy	.	16ccc\	.	.	.	.	.	.	.	.	.	.	.	.	.	.	.	.	.
8G\J	.	.	16G/yy 16e/yy	.	16ee\	.	.	.	.	.	.	.	.	.	.	.	.	.	.	.	.	.
.	.	.	16G/yy 16eJJ/yy	.	16ccc\JJ	.	.	.	.	.	.	.	.	.	.	.	.	.	.	.	.	.
!LO:LB:g=original	!	!	!	!	!	!	!	!	!	!	!	!	!	!	!	!	!	!	!	!	!LO:LB:g=original	!
=66	=66	=66	=66	=66	=66	=66	=66	=66	=66	=66	=66	=66	=66	=66	=66	=66	=66	=66	=66	=66	=66	=66
8GG/L	7 5	.	16G/yy 16fLL/yy	.	16dd\LL	.	1GG	.	1b	.	1dd	.	2GG/	2g/	2dd\	2g/	2dd\	2b\	2dd\	2b\	2dd\	.
.	.	.	16G/yy 16f/yy	.	16ccc\	.	.	.	.	.	.	.	.	.	.	.	.	.	.	.	.	.
8GG/	.	.	16G/yy 16f/yy	.	16dd\	.	.	.	.	.	.	.	.	.	.	.	.	.	.	.	.	.
.	.	.	16G/yy 16f/yy	.	16ccc\	.	.	.	.	.	.	.	.	.	.	.	.	.	.	.	.	.
8GG/	.	.	16G/yy 16f/yy	.	16dd\	.	.	.	.	.	.	.	.	.	.	.	.	.	.	.	.	.
.	.	.	16G/yy 16f/yy	.	16ccc\	.	.	.	.	.	.	.	.	.	.	.	.	.	.	.	.	.
8GG/J	.	.	16G/yy 16f/yy	.	16dd\	.	.	.	.	.	.	.	.	.	.	.	.	.	.	.	.	.
.	.	.	16G/yy 16fJJ/yy	.	16ccc\JJ	.	.	.	.	.	.	.	.	.	.	.	.	.	.	.	.	.
8GG/L	.	.	16G/yy 16fLL/yy	.	16dd\LL	.	.	.	.	.	.	.	4GG/	4dd\	4ff\	4dd\	4ff\	4dd\	4ff\	4dd\	4ff\	.
.	.	.	16G/yy 16f/yy	.	16bb\	.	.	.	.	.	.	.	.	.	.	.	.	.	.	.	.	.
8GG/	.	.	16G/yy 16f/yy	.	16dd\	.	.	.	.	.	.	.	.	.	.	.	.	.	.	.	.	.
.	.	.	16G/yy 16f/yy	.	16bb\	.	.	.	.	.	.	.	.	.	.	.	.	.	.	.	.	.
8GG/	.	.	16G/yy 16f/yy	.	16dd\	.	.	.	.	.	.	.	4GG/	4dd\	4ff\	4dd\	4ff\	4dd\	4ff\	4dd\	4ff\	.
.	.	.	16G/yy 16f/yy	.	16bb\	.	.	.	.	.	.	.	.	.	.	.	.	.	.	.	.	.
8GG/J	.	.	16G/yy 16f/yy	.	16dd\	.	.	.	.	.	.	.	.	.	.	.	.	.	.	.	.	.
.	.	.	16G/yy 16fJJ/yy	.	16bb\JJ	.	.	.	.	.	.	.	.	.	.	.	.	.	.	.	.	.
*Xtremolo	*	*	*Xtremolo	*	*Xtremolo	*	*	*	*	*	*	*	*	*	*	*	*	*	*	*	*	*
=67	=67	=67	=67	=67	=67	=67	=67	=67	=67	=67	=67	=67	=67	=67	=67	=67	=67	=67	=67	=67	=67	=67
4C/	.	.	4G/ 4e/	.	4ee\ 4ccc\	.	4C/	-son.	4cc\	-son.	4ee\	-son.	4C/	4cc\	4ee\	4cc\	4ee\	4cc\	4ee\	4cc\	4ee\	.
!	!	!	!	!LO:DY:b:t=p.	!	!	!	!	!	!	!	!	!	!	!	!	!	!	!	!	!	!
4r	.	.	4r	p	4r	.	4r	.	4r	.	4r	.	4r	4r	4r	4r	4r	4ee\	4gg\	4ee\	4gg\	.
!	!	!	!	!	!	!LO:DY:b:t=pia	!	!	!	!	!	!	!	!	!	!	!	!	!	!	!	!
2r	.	.	4e/	.	4g/	p	2r	.	2r	.	2r	.	2r	2r	2r	2r	2r	4ee\	4gg\	4ee\	4gg\	.
.	.	.	4e/	.	4g/	.	.	.	.	.	.	.	.	.	.	.	.	4ee\	4gg\	4ee\	4gg\	.
!	!	!	!	!	!	!	!	!	!	!	!	!	!	!	!LO:LB:g=original	!	!	!LO:LB:g=original	!	!	!	!
=68	=68	=68	=68	=68	=68	=68	=68	=68	=68	=68	=68	=68	=68	=68	=68	=68	=68	=68	=68	=68	=68	=68
!LO:TX:a:t=2.	!	!	!	!	!	!	!	!	!LO:TX:a:t=2.	!	!LO:TX:a:t=2.	!	!LO:TX:a:t=6	!LO:TX:a:t=6.	!LO:TX:a:t=6.	!LO:TX:a:t=2.	!LO:TX:a:t=2.	!LO:TX:a:t=Solo	!	!	!	!
0r	.	.	8e/L	.	8g/L	.	0r	.	0r	.	0r	.	00r	00r	00r	0r	0r	8ee\L	8gg\L	8ee\L	8gg\L	.
!	!	!	!	!	!	!LO:DY:b:t=piano.	!	!	!	!	!	!	!	!	!	!	!	!	!	!	!	!
.	.	.	8c/	.	8e/	p	.	.	.	.	.	.	.	.	.	.	.	8cc\	8ee\	8cc\	8ee\	.
.	.	.	8d/	.	8f/	.	.	.	.	.	.	.	.	.	.	.	.	8dd\	8ff\	8dd\	8ff\	.
.	.	.	8e/J	.	8g/J	.	.	.	.	.	.	.	.	.	.	.	.	8ee\J	8gg\J	8ee\J	8gg\J	.
.	.	.	4.f/	.	4.a/	.	.	.	.	.	.	.	.	.	.	.	.	4.ff\	4.aa\	4.ff\	4.aa\	.
.	.	.	8e/	.	8g/	.	.	.	.	.	.	.	.	.	.	.	.	8ee\	8gg\	8ee\	8gg\	.
!	!	!	!	!	!	!	!	!	!	!	!	!	!	!	!	!	!	!	!	!LO:LB:g=original	!	!
=69-	=69	=69	=69	=69	=69	=69	=69-	=69	=69-	=69	=69-	=69	=69-	=69-	=69-	=69-	=69-	=69	=69	=69	=69	=69
.	.	.	8d/L	.	8f/L	.	.	.	.	.	.	.	.	.	.	.	.	8dd\L	8ff\L	8dd\L	8ff\L	.
.	.	.	8B/	.	8d/	.	.	.	.	.	.	.	.	.	.	.	.	8b\	8dd\	8b\	8dd\	.
.	.	.	8c/	.	8e/	.	.	.	.	.	.	.	.	.	.	.	.	8cc\	8ee\	8cc\	8ee\	.
.	.	.	8d/J	.	8f/J	.	.	.	.	.	.	.	.	.	.	.	.	8dd\J	8ff\J	8dd\J	8ff\J	.
.	.	.	8e/	.	8g/	.	.	.	.	.	.	.	.	.	.	.	.	4ee\	4gg\	4ee\	4gg\	.
.	.	.	8r	.	8r	.	.	.	.	.	.	.	.	.	.	.	.	.	.	.	.	.
.	.	.	8r	.	8r	.	.	.	.	.	.	.	.	.	.	.	.	4r	4r	4r	4r	.
!	!	!	!	!LO:DY:b:t=forte.	!	!LO:DY:b:t=for.	!	!	!	!	!	!	!	!	!	!	!	!	!	!	!	!
.	.	.	8e/	f	8ee\ 8ccc\	f	.	.	.	.	.	.	.	.	.	.	.	.	.	.	.	.
!	!	!	!LO:LB:g=original	!	!	!	!	!	!	!	!LO:LB:g=original	!	!	!	!	!	!LO:LB:g=original	!	!	!	!	!
=70	=70	=70	=70	=70	=70	=70	=70	=70	=70	=70	=70	=70	=70-	=70-	=70-	=70	=70	=70	=70	=70	=70	=70
*tremolo	*	*	*	*	*	*	*	*	*	*	*	*	*	*	*	*	*	*	*	*	*	*
8F\L	.	.	4G/ 4f/	.	4ff\ 4ddd\	.	2F\	Ky-	2dd\	e-	2ff\	e-	.	.	.	2dd\	2ff\	2ff\	2aa\	2ff\	2aa\	.
8F\	.	.	.	.	.	.	.	.	.	.	.	.	.	.	.	.	.	.	.	.	.	.
8F\	.	.	4G/ 4f/	.	4ff\ 4ddd\	.	.	.	.	.	.	.	.	.	.	.	.	.	.	.	.	.
8F\J	.	.	.	.	.	.	.	.	.	.	.	.	.	.	.	.	.	.	.	.	.	.
8G\L	.	.	4G/ 4e/	.	4dd\ 4bb\	.	2G\	-ri-	2b\	-lei-	2dd\	-lei-	.	.	.	2g/	2dd\	2dd\	2ff\	2dd\	2ff\	.
8G\	.	.	.	.	.	.	.	.	.	.	.	.	.	.	.	.	.	.	.	.	.	.
8G\	.	.	4G/ 4e/	.	4dd\ 4bb\	.	.	.	.	.	.	.	.	.	.	.	.	.	.	.	.	.
8G\J	.	.	.	.	.	.	.	.	.	.	.	.	.	.	.	.	.	.	.	.	.	.
*Xtremolo	*	*	*	*	*	*	*	*	*	*	*	*	*	*	*	*	*	*	*	*	*	*
!	!	!	!	!	!	!	!LO:LB:g=original	!	!	!	!	!	!	!	!	!	!	!	!LO:LB:g=original	!	!	!
=71	=71	=71	=71	=71	=71	=71	=71	=71	=71	=71	=71	=71	=71-	=71-	=71-	=71	=71	=71	=71	=71	=71	=71
!	!	!	!	!	!	!	!	!	!	!	!	!	!	!	!	!	!	!	!LO:TX:a:t=Solo	!	!	!
4C/	.	.	4G/ 4e/	.	4ee\ 4ccc\	.	4C/	-e.	4cc\	-son.	4ee\	-son.	.	.	.	4cc\	4ee\	4cc\	4ee\	4cc\	4ee\	.
4r	.	.	4r	.	4r	.	4r	.	4r	.	4r	.	.	.	.	4r	4r	4ee\	4gg\	4ee\	4gg\	.
!	!	!	!	!LO:DY:b:t=piano.	!	!LO:DY:b:t=for	!	!	!	!	!	!	!	!	!	!	!	!	!	!	!	!
2r	.	.	4e/	p	4g/	p	2r	.	2r	.	2r	.	.	.	.	2r	2r	4ee\	4gg\	4ee\	4gg\	.
.	.	.	4e/	.	4g/	.	.	.	.	.	.	.	.	.	.	.	.	4ee\	4gg\	4ee\	4gg\	.
=72	=72	=72	=72	=72	=72	=72	=72	=72	=72	=72	=72	=72	=72-	=72-	=72-	=72	=72	=72	=72	=72	=72	=72
!LO:TX:a:t=2.	!	!	!	!	!	!	!LO:TX:a:t=2.	!	!LO:TX:a:t=2.	!	!LO:TX:a:t=2.	!	!	!	!	!LO:TX:a:t=2.	!LO:TX:a:t=2.	!	!	!	!	!
0r	.	.	8e/L	.	8g/L	.	0r	.	0r	.	0r	.	0r	0r	0r	0r	0r	8ee\L	8gg\L	8ee\L	8gg\L	.
.	.	.	8c/	.	8e/	.	.	.	.	.	.	.	.	.	.	.	.	8cc\	8ee\	8cc\	8ee\	.
.	.	.	8d/	.	8f/	.	.	.	.	.	.	.	.	.	.	.	.	8dd\	8ff\	8dd\	8ff\	.
.	.	.	8e/J	.	8g/J	.	.	.	.	.	.	.	.	.	.	.	.	8ee\J	8gg\J	8ee\J	8gg\J	.
.	.	.	4.f/	.	4.a/	.	.	.	.	.	.	.	.	.	.	.	.	4.ff\	4.aa\	4.ff\	4.aa\	.
.	.	.	8e/	.	8g/	.	.	.	.	.	.	.	.	.	.	.	.	8ee\	8gg\	8ee\	8gg\	.
=73-	=73	=73	=73	=73	=73	=73	=73-	=73	=73-	=73	=73-	=73	=73-	=73-	=73-	=73-	=73-	=73	=73	=73	=73	=73
.	.	.	8d/L	.	8f/L	.	.	.	.	.	.	.	.	.	.	.	.	8dd\L	8ff\L	8dd\L	8ff\L	.
.	.	.	8B/	.	8d/	.	.	.	.	.	.	.	.	.	.	.	.	8b\	8dd\	8b\	8dd\	.
.	.	.	8c/	.	8e/	.	.	.	.	.	.	.	.	.	.	.	.	8cc\	8ee\	8cc\	8ee\	.
.	.	.	8d/J	.	8f/J	.	.	.	.	.	.	.	.	.	.	.	.	8dd\J	8ff\J	8dd\J	8ff\J	.
.	.	.	8e/	.	8g/	.	.	.	.	.	.	.	.	.	.	.	.	4ee\	4gg\	4ee\	4gg\	.
.	.	.	8r	.	8r	.	.	.	.	.	.	.	.	.	.	.	.	.	.	.	.	.
.	.	.	8r	.	8r	.	.	.	.	.	.	.	.	.	.	.	.	4r	4r	4r	4r	.
!	!	!	!	!LO:DY:b:t=forte.	!	!LO:DY:b:t=for	!	!	!	!	!	!	!	!	!	!	!	!	!	!	!	!
.	.	.	8e/	f	8ee\ 8ccc\	f	.	.	.	.	.	.	.	.	.	.	.	.	.	.	.	.
!	!	!	!	!	!	!	!	!	!	!	!	!	!	!	!	!	!	!	!	!	!LO:LB:g=original	!
=74	=74	=74	=74	=74	=74	=74	=74	=74	=74	=74	=74	=74	=74	=74	=74	=74	=74	=74	=74	=74	=74	=74
*tremolo	*	*	*	*	*	*	*	*	*	*	*	*	*	*	*	*	*	*	*	*	*	*
8F\L	.	.	4G/ 4f/	.	4ff\ 4ddd\	.	2F\	Ky-	2dd\	e-	2ff\	E-	2GG/	2dd\	2ff\	2dd\	2ff\	2ff\	2aa\	2ff\	2aa\	.
8F\	.	.	.	.	.	.	.	.	.	.	.	.	.	.	.	.	.	.	.	.	.	.
8F\	.	.	4G/ 4f/	.	4ff\ 4ddd\	.	.	.	.	.	.	.	.	.	.	.	.	.	.	.	.	.
8F\J	.	.	.	.	.	.	.	.	.	.	.	.	.	.	.	.	.	.	.	.	.	.
8G\L	.	.	4G/ 4e/	.	4dd\ 4bb\	.	2G\	-ri-	2b\	-lei-	2dd\	-lei-	2GG/	2g/	2dd\	2g/	2dd\	2dd\	2ff\	2dd\	2ff\	.
8G\	.	.	.	.	.	.	.	.	.	.	.	.	.	.	.	.	.	.	.	.	.	.
8G\	.	.	4G/ 4e/	.	4dd\ 4bb\	.	.	.	.	.	.	.	.	.	.	.	.	.	.	.	.	.
8G\J	.	.	.	.	.	.	.	.	.	.	.	.	.	.	.	.	.	.	.	.	.	.
*Xtremolo	*	*	*	*	*	*	*	*	*	*	*	*	*	*	*	*	*	*	*	*	*	*
!	!	!	!	!	!	!	!	!	!	!	!	!	!	!	!	!	!	!	!	!LO:LB:g=original	!	!
=75	=75	=75	=75	=75	=75	=75	=75	=75	=75	=75	=75	=75	=75	=75	=75	=75	=75	=75	=75	=75	=75	=75
4C/	.	.	8G/L 8e/	.	8ccc\L	.	4c\	-e	4cc\	-son.	4ee\	-son.	4C/	4cc\	4ee\	4cc\	4ee\	4cc\	4ee\	4cc\	4ee\	.
.	.	.	8g/	.	8gg\	.	.	.	.	.	.	.	.	.	.	.	.	.	.	.	.	.
4r	.	.	8e/	.	8ee\	.	4r	.	4r	.	4r	.	4r	4r	4r	4r	4r	4r	4r	4r	4r	.
.	.	.	8c/J	.	8cc\J	.	.	.	.	.	.	.	.	.	.	.	.	.	.	.	.	.
4r	.	.	4G/ 4d/	.	4g/	.	4r	.	4r	.	4r	.	4r	4r	4r	4r	4r	4r	4r	4r	4r	.
4G\	.	.	4G/ 4f/	.	4dd\ 4bb\	.	4G\	e-	4dd\	e-	4ff\	e-	4GG/	4g/	4dd\	4g/	4dd\	4dd\	4ff\	4dd\	4ff\	.
!	!	!	!	!	!LO:LB:g=original	!	!	!	!LO:LB:g=original	!	!	!	!LO:LB:g=original	!	!	!	!	!LO:LB:g=original	!	!	!	!
=76	=76	=76	=76	=76	=76	=76	=76	=76	=76	=76	=76	=76	=76	=76	=76	=76	=76	=76	=76	=76	=76	=76
4c\	.	.	8G/L 8e/	.	8ee\L 8ccc\	.	4c\	-lei-	4cc\	-lei-	4ee\	-lei-	4C/	4cc\	4ee\	4cc\	4ee\	4cc\	4ee\	4cc\	4ee\	.
.	.	.	8g/	.	8gg\	.	.	.	.	.	.	.	.	.	.	.	.	.	.	.	.	.
!	!	!LO:DY:b:t=piano	!	!	!	!	!	!	!	!	!	!	!	!	!	!	!	!	!	!	!	!
4c\	.	p	8e/	.	8ee\	.	4c\	-son	4cc\	-son	4ee\	-son	4r	4r	4r	4r	4r	4r	4r	4r	4r	.
.	.	.	8c/J	.	8cc\J	.	.	.	.	.	.	.	.	.	.	.	.	.	.	.	.	.
4r	.	.	4G/	.	4g/	.	4r	.	4r	.	4r	.	4r	4r	4r	4r	4r	4r	4r	4r	4r	.
4G\	.	.	4G/ 4f/	.	4dd\ 4bb\	.	4G\	e-	4dd\	e-	4ff\	e-	4GG/	4g/	4dd\	4g/	4dd\	4dd\	4ff\	4dd\	4ff\	.
!	!	!	!LO:LB:g=original	!	!	!	!	!	!	!	!	!	!	!	!	!	!	!	!	!	!	!
=77	=77	=77	=77	=77	=77	=77	=77	=77	=77	=77	=77	=77	=77	=77	=77	=77	=77	=77	=77	=77	=77	=77
4c\	.	.	4G/ 4e/	.	4ee\ 4ccc\	.	4c\	-lei-	4cc\	-lei-	4ee\	-lei-	4C/	4cc\	4ee\	8cc\L	8ee\L	8cc\L	8ee\L	8cc\L	8ee\L	.
.	.	.	.	.	.	.	.	.	.	.	.	.	.	.	.	8cc\	8ee\	8cc\	8ee\	8cc\	8ee\	.
4r	.	.	4r	.	4r	.	4r	.	4r	.	4r	.	4r	4r	4r	8.ee\	8.gg\	8.ee\	8.gg\	8.ee\	8.gg\	.
.	.	.	.	.	.	.	.	.	.	.	.	.	.	.	.	16dd\Jk	16ff\Jk	16dd\Jk	16ff\Jk	16dd\Jk	16ff\Jk	.
4c\	.	.	4G/ 4e/	.	4ee\ 4ccc\	.	4c\	-son	4cc\	-son	4ee\	-son	2r	2r	2r	8.cc\L	8ee\L	8cc\L	8ee\L	8cc\L	8ee\L	.
.	.	.	.	.	.	.	.	.	.	.	.	.	.	.	.	.	8ee\	8cc\	8ee\	8cc\	8ee\	.
.	.	.	.	.	.	.	.	.	.	.	.	.	.	.	.	16cc\Jk	.	.	.	.	.	.
4r	.	.	4r	.	4r	.	4r	.	4r	.	4r	.	.	.	.	8.ee\L	8.gg\	8.ee\	8.gg\	8.ee\	8.gg\	.
.	.	.	.	.	.	.	.	.	.	.	.	.	.	.	.	16dd\Jk	16ff\Jk	16dd\Jk	16ff\Jk	16dd\Jk	16ff\Jk	.
!LO:LB:g=original	!	!	!	!	!	!	!	!	!	!	!LO:LB:g=original	!	!	!	!	!LO:LB:g=original	!	!	!LO:LB:g=original	!	!	!
=78	=78	=78	=78	=78	=78	=78	=78	=78	=78	=78	=78	=78	=78	=78	=78	=78	=78	=78	=78	=78	=78	=78
4c\	.	.	4G/ 4e/	.	4g\ 4ee\ 4ccc\	.	4c\	Ky-	4cc\	e-	4ee\	e-	4C/	4cc\	4ee\	4cc\	4ee\	4cc\	4ee\	4cc\	4ee\	.
4c\	.	.	4G/ 4e/	.	4g\ 4ee\ 4ccc\	.	4c\	-ri-	4ee\	-lei-	4gg\	-lei-	4C/	4cc\	4ee\	4ee\	4gg\	4ee\	4gg\	4ee\	4gg\	.
4c\	.	.	4G/ 4e/	.	4g\ 4ee\ 4ccc\	.	4c\	-e.	4cc\	-ſon.	4ee\	-son.	4C/	4cc\	4ee\	4cc\	4ee\	4cc\	4ee\	4cc\	4ee\	.
4r	.	.	4r	.	4r	.	4r	.	4r	.	4r	.	4r	4r	4r	4r	4r	4r	4r	4r	4r	.
==	==	==	==	==	==	==	==	==	==	==	==	==	==	==	==	==	==	==	==	==	==	==
*-	*-	*-	*-	*-	*-	*-	*-	*-	*-	*-	*-	*-	*-	*-	*-	*-	*-	*-	*-	*-	*-	*-
!!!system-decoration: [(g1)][(g2)]g3[(g4)][(g5)]g6
!!!RDF**kern: > = above
!!!RDF**kern: < = below
!!!ENC: Marcin Jachim
!!!END: 2020-10-05
!!!EED: Jędrzej Mróz
!!!EST: 2022-02-09
